;Generated with Cura_SteamEngine 15.01
; Default start code
G28 ; Home extruder
G1 Z15 F100
M107 ; Turn off fan
G90 ; Absolute positioning
M82 ; Extruder in absolute mode
M190 S60
; Activate all used extruder
M104 T0 S195
G92 E0 ; Reset extruder position
; Wait for all used extruders to reach temperature
M109 T0 S195
;Layer count: 25
;LAYER:0
M107
G0 F9000 X83.459 Y83.166 Z0.300
;TYPE:SKIRT
G1 F1800 X85.276 Y81.555 E0.12115
G1 X87.111 Y80.239 E0.23381
G1 X87.337 Y80.079 E0.24762
G1 X89.367 Y78.931 E0.36397
G1 X91.583 Y77.950 E0.48488
G1 X93.720 Y77.259 E0.59693
G1 X93.972 Y77.176 E0.61017
G1 X96.279 Y76.695 E0.72774
G1 X98.639 Y76.441 E0.84616
G1 X99.989 Y76.399 E0.91354
G1 X101.260 Y76.431 E0.97697
G1 X103.542 Y76.666 E1.09142
G1 X105.915 Y77.152 E1.21227
G1 X108.078 Y77.832 E1.32539
G1 X108.342 Y77.919 E1.33926
G1 X110.470 Y78.850 E1.45514
G1 X112.583 Y80.033 E1.57596
G1 X114.419 Y81.327 E1.68802
G1 X114.644 Y81.486 E1.70176
G1 X116.406 Y83.035 E1.81881
G1 X118.060 Y84.807 E1.93974
G1 X119.526 Y86.745 E2.06098
G1 X120.689 Y88.663 E2.17288
G1 X120.832 Y88.900 E2.18669
G1 X121.828 Y91.026 E2.30382
G1 X122.631 Y93.311 E2.42466
G1 X123.158 Y95.500 E2.53699
G1 X123.222 Y95.770 E2.55083
G1 X123.522 Y98.089 E2.66749
G1 X123.587 Y100.301 E2.77789
G1 X123.588 Y100.301 E2.77794
G1 X123.598 Y100.588 E2.79227
G1 X123.429 Y102.774 E2.90166
G1 X123.407 Y103.042 E2.91507
G1 X123.021 Y105.157 E3.02233
G1 X122.973 Y105.422 E3.03577
G1 X122.320 Y107.667 E3.15241
G1 X121.485 Y109.744 E3.26410
G1 X121.382 Y110.001 E3.27791
G1 X120.279 Y112.072 E3.39497
G1 X118.934 Y114.087 E3.51584
G1 X117.503 Y115.816 E3.62781
G1 X117.327 Y116.029 E3.64160
G1 X115.647 Y117.667 E3.75866
G1 X113.898 Y119.062 E3.87027
G1 X113.684 Y119.233 E3.88394
G1 X111.851 Y120.398 E3.99229
G1 X111.634 Y120.538 E4.00518
G1 X109.533 Y121.589 E4.12238
G1 X107.271 Y122.451 E4.24315
G1 X104.924 Y123.081 E4.36439
G1 X102.704 Y123.436 E4.47655
G1 X102.431 Y123.480 E4.49034
G1 X100.270 Y123.590 E4.59830
G1 X100.016 Y123.606 E4.61099
G1 X97.826 Y123.493 E4.72040
G1 X97.557 Y123.477 E4.73384
G1 X95.431 Y123.146 E4.84119
G1 X95.165 Y123.104 E4.85462
G1 X92.908 Y122.509 E4.97107
G1 X90.638 Y121.665 E5.09190
G1 X88.460 Y120.586 E5.21316
G1 X86.548 Y119.382 E5.32589
G1 X86.316 Y119.233 E5.33964
G1 X84.620 Y117.891 E5.44754
G1 X84.410 Y117.723 E5.46096
G1 X82.741 Y116.097 E5.57721
G1 X81.292 Y114.375 E5.68949
G1 X81.116 Y114.163 E5.70324
G1 X79.813 Y112.226 E5.81970
G1 X78.665 Y110.092 E5.94060
G1 X77.806 Y108.004 E6.05324
G1 X77.703 Y107.748 E6.06701
G1 X77.052 Y105.508 E6.18338
G1 X76.640 Y103.303 E6.29530
G1 X76.590 Y103.031 E6.30909
G1 X76.424 Y100.874 E6.41702
G1 X76.402 Y100.620 E6.42974
G1 X76.458 Y98.428 E6.53914
G1 X76.467 Y98.159 E6.55257
G1 X76.766 Y95.856 E6.66843
G1 X77.272 Y93.673 E6.78023
G1 X77.335 Y93.406 E6.79391
G1 X78.103 Y91.192 E6.91083
G1 X79.123 Y88.993 E7.03176
G1 X80.276 Y87.053 E7.14435
G1 X80.419 Y86.817 E7.15812
G1 X81.819 Y84.951 E7.27450
G1 X83.459 Y83.166 E7.39544
G0 F9000 X83.739 Y83.451
G1 F1800 X85.526 Y81.868 E7.51454
G1 X87.343 Y80.565 E7.62609
G1 X87.551 Y80.417 E7.63883
G1 X89.547 Y79.288 E7.75324
G1 X91.725 Y78.324 E7.87206
G1 X93.827 Y77.645 E7.98227
G1 X94.076 Y77.563 E7.99535
G1 X96.342 Y77.090 E8.11084
G1 X98.666 Y76.840 E8.22745
G1 X99.990 Y76.799 E8.29354
G1 X101.234 Y76.830 E8.35562
G1 X103.481 Y77.062 E8.46832
G1 X105.815 Y77.540 E8.58718
G1 X107.956 Y78.213 E8.69915
G1 X108.199 Y78.293 E8.71191
G1 X110.292 Y79.208 E8.82587
G1 X112.369 Y80.372 E8.94466
G1 X114.188 Y81.654 E9.05568
G1 X114.396 Y81.801 E9.06839
G1 X116.128 Y83.322 E9.18339
G1 X117.754 Y85.065 E9.30231
G1 X119.194 Y86.970 E9.42145
G1 X120.347 Y88.871 E9.53237
G1 X120.479 Y89.088 E9.54504
G1 X121.457 Y91.178 E9.66016
G1 X122.247 Y93.424 E9.77895
G1 X122.769 Y95.593 E9.89025
G1 X122.828 Y95.842 E9.90302
G1 X123.123 Y98.120 E10.01761
G1 X123.188 Y100.315 E10.12717
G1 X123.197 Y100.580 E10.14040
G1 X123.031 Y102.742 E10.24858
G1 X123.010 Y102.989 E10.26095
G1 X122.628 Y105.086 E10.36729
G1 X122.583 Y105.330 E10.37967
G1 X121.941 Y107.536 E10.49429
G1 X121.114 Y109.595 E10.60499
G1 X121.019 Y109.832 E10.61773
G1 X119.935 Y111.866 E10.73272
G1 X118.613 Y113.848 E10.85158
G1 X117.195 Y115.561 E10.96252
G1 X117.033 Y115.758 E10.97525
G1 X115.382 Y117.366 E11.09023
G1 X113.649 Y118.749 E11.20084
G1 X113.451 Y118.907 E11.21348
G1 X111.636 Y120.061 E11.32079
G1 X111.436 Y120.190 E11.33266
G1 X109.372 Y121.222 E11.44779
G1 X107.147 Y122.070 E11.56658
G1 X104.840 Y122.690 E11.68576
G1 X102.641 Y123.041 E11.79686
G1 X102.389 Y123.081 E11.80959
G1 X100.247 Y123.191 E11.91659
G1 X100.014 Y123.205 E11.92824
G1 X97.848 Y123.094 E12.03644
G1 X97.600 Y123.079 E12.04884
G1 X95.493 Y122.751 E12.15522
G1 X95.248 Y122.712 E12.16760
G1 X93.029 Y122.127 E12.28209
G1 X90.797 Y121.297 E12.40089
G1 X88.656 Y120.237 E12.52008
G1 X86.763 Y119.045 E12.63169
G1 X86.549 Y118.907 E12.64439
G1 X84.869 Y117.578 E12.75126
G1 X84.675 Y117.423 E12.76365
G1 X83.034 Y115.824 E12.87796
G1 X81.599 Y114.119 E12.98914
G1 X81.437 Y113.923 E13.00183
G1 X80.156 Y112.019 E13.11632
G1 X79.027 Y109.921 E13.23518
G1 X78.177 Y107.853 E13.34673
G1 X78.082 Y107.617 E13.35942
G1 X77.441 Y105.416 E13.47379
G1 X77.033 Y103.231 E13.58469
G1 X76.987 Y102.979 E13.59747
G1 X76.822 Y100.843 E13.70435
G1 X76.803 Y100.608 E13.71611
G1 X76.857 Y98.441 E13.82426
G1 X76.866 Y98.192 E13.83669
G1 X77.160 Y95.928 E13.95059
G1 X77.662 Y93.764 E14.06142
G1 X77.719 Y93.518 E14.07401
G1 X78.474 Y91.342 E14.18892
G1 X79.477 Y89.180 E14.30783
G1 X80.619 Y87.259 E14.41932
G1 X80.751 Y87.042 E14.43200
G1 X82.128 Y85.207 E14.54645
G1 X83.739 Y83.451 E14.66534
G1 F2400 E-0.33466
G0 F9000 X86.407 Y86.164
;TYPE:WALL-INNER
G1 F2400 E14.66534
G1 F1800 X87.896 Y84.845 E14.76459
G1 X89.548 Y83.660 E14.86602
G1 X91.249 Y82.691 E14.96368
G1 X93.086 Y81.878 E15.06391
G1 X95.013 Y81.255 E15.16494
G1 X96.928 Y80.850 E15.26260
G1 X98.931 Y80.634 E15.36311
G1 X100.004 Y80.600 E15.41666
G1 X100.990 Y80.625 E15.46587
G1 X102.905 Y80.823 E15.56192
G1 X104.866 Y81.225 E15.66179
G1 X106.788 Y81.829 E15.76230
G1 X108.607 Y82.619 E15.86124
G1 X110.338 Y83.589 E15.96024
G1 X112.038 Y84.787 E16.06399
G1 X113.479 Y86.053 E16.15969
G1 X114.838 Y87.511 E16.25913
G1 X116.048 Y89.110 E16.35917
G1 X117.125 Y90.887 E16.46284
G1 X117.933 Y92.613 E16.55792
G1 X118.598 Y94.504 E16.65792
G1 X119.072 Y96.470 E16.75882
G1 X119.330 Y98.418 E16.85685
G1 X119.390 Y100.451 E16.95832
G1 X119.392 Y100.507 E16.96112
G1 X119.243 Y102.434 E17.05754
G1 X119.238 Y102.493 E17.06050
G1 X118.881 Y104.452 E17.15984
G1 X118.346 Y106.290 E17.25535
G1 X117.569 Y108.224 E17.35933
G1 X116.667 Y109.917 E17.45503
G1 X115.558 Y111.580 E17.55476
G1 X114.241 Y113.172 E17.65784
G1 X112.860 Y114.517 E17.75401
G1 X111.238 Y115.812 E17.85756
G1 X109.597 Y116.854 E17.95454
G1 X107.844 Y117.738 E18.05249
G1 X105.968 Y118.453 E18.15265
G1 X104.045 Y118.969 E18.25199
G1 X101.995 Y119.297 E18.35556
G1 X100.050 Y119.396 E18.45272
G1 X99.995 Y119.399 E18.45547
G1 X98.062 Y119.300 E18.55204
G1 X98.007 Y119.297 E18.55478
G1 X96.084 Y118.997 E18.65188
G1 X94.176 Y118.500 E18.75025
G1 X92.311 Y117.807 E18.84951
G1 X90.519 Y116.919 E18.94929
G1 X88.801 Y115.837 E19.05058
G1 X87.233 Y114.603 E19.15013
G1 X87.193 Y114.571 E19.15269
G1 X85.817 Y113.229 E19.24858
G1 X84.518 Y111.685 E19.34924
G1 X83.410 Y110.048 E19.44786
G1 X82.469 Y108.298 E19.54699
G1 X81.696 Y106.419 E19.64836
G1 X81.143 Y104.535 E19.74632
G1 X80.770 Y102.539 E19.84762
G1 X80.611 Y100.549 E19.94722
G1 X80.607 Y100.498 E19.94977
G1 X80.656 Y98.561 E20.04644
G1 X80.658 Y98.501 E20.04944
G1 X80.905 Y96.599 E20.14512
G1 X81.362 Y94.628 E20.24607
G1 X82.005 Y92.761 E20.34458
G1 X82.838 Y90.963 E20.44344
G1 X83.879 Y89.213 E20.54503
G1 X85.053 Y87.639 E20.64299
G1 X86.407 Y86.164 E20.74289
G0 F9000 X107.331 Y108.127
G1 F1800 X107.091 Y108.406 E20.76125
G1 X106.989 Y108.616 E20.77289
G1 X106.930 Y108.808 E20.78292
G1 X106.903 Y109.028 E20.79397
G1 X106.914 Y109.266 E20.80586
G1 X107.024 Y109.616 E20.82416
G1 X107.157 Y109.823 E20.83644
G1 X107.297 Y109.979 E20.84690
G1 X107.460 Y110.108 E20.85727
G1 X107.636 Y110.207 E20.86734
G1 X107.835 Y110.276 E20.87785
G1 X108.045 Y110.313 E20.88849
G1 X108.293 Y110.311 E20.90086
G1 X108.671 Y110.211 E20.92037
G1 X109.003 Y109.980 E20.94055
G1 X109.155 Y109.808 E20.95200
G1 X109.267 Y109.620 E20.96292
G1 X109.341 Y109.437 E20.97276
G1 X109.386 Y109.229 E20.98338
G1 X109.396 Y109.014 E20.99412
G1 X109.365 Y108.793 E21.00525
G1 X109.301 Y108.591 E21.01582
G1 X109.203 Y108.402 E21.02645
G1 X109.076 Y108.235 E21.03691
G1 X108.929 Y108.096 E21.04701
G1 X108.743 Y107.974 E21.05810
G1 X108.552 Y107.890 E21.06851
G1 X108.356 Y107.840 E21.07861
G1 X108.134 Y107.823 E21.08971
G1 X107.924 Y107.844 E21.10024
G1 X107.722 Y107.898 E21.11067
G1 X107.525 Y107.989 E21.12150
G1 X107.331 Y108.127 E21.13338
G0 F9000 X107.727 Y108.336
;TYPE:WALL-OUTER
G1 F1800 X107.602 Y108.425 E21.14103
G1 X107.428 Y108.627 E21.15434
G1 X107.362 Y108.763 E21.16188
G1 X107.323 Y108.892 E21.16860
G1 X107.304 Y109.043 E21.17619
G1 X107.311 Y109.195 E21.18378
G1 X107.390 Y109.445 E21.19687
G1 X107.476 Y109.580 E21.20485
G1 X107.572 Y109.686 E21.21199
G1 X107.683 Y109.775 E21.21908
G1 X107.801 Y109.841 E21.22583
G1 X107.936 Y109.888 E21.23296
G1 X108.078 Y109.913 E21.24015
G1 X108.239 Y109.912 E21.24819
G1 X108.500 Y109.842 E21.26167
G1 X108.735 Y109.679 E21.27594
G1 X108.830 Y109.571 E21.28311
G1 X108.908 Y109.441 E21.29068
G1 X108.958 Y109.318 E21.29730
G1 X108.988 Y109.178 E21.30444
G1 X108.995 Y109.033 E21.31169
G1 X108.974 Y108.882 E21.31929
G1 X108.930 Y108.745 E21.32647
G1 X108.864 Y108.617 E21.33366
G1 X108.777 Y108.503 E21.34081
G1 X108.680 Y108.411 E21.34748
G1 X108.552 Y108.327 E21.35512
G1 X108.421 Y108.269 E21.36227
G1 X108.291 Y108.236 E21.36896
G1 X108.139 Y108.224 E21.37656
G1 X107.996 Y108.239 E21.38374
G1 X107.859 Y108.275 E21.39080
G1 X107.727 Y108.336 E21.39806
G0 F9000 X107.601 Y108.064
G0 X108.743 Y107.975
G0 X109.394 Y109.016
G0 X112.931 Y114.589
G0 X113.128 Y114.815
G1 F1800 X111.473 Y116.136 E21.50370
G1 X109.812 Y117.191 E21.60188
G1 X109.752 Y117.231 E21.60547
G1 X108.004 Y118.105 E21.70297
G1 X106.097 Y118.832 E21.80479
G1 X104.126 Y119.361 E21.90661
G1 X102.041 Y119.694 E22.01195
G1 X100.072 Y119.795 E22.11031
G1 X99.998 Y119.799 E22.11401
G1 X98.038 Y119.699 E22.21192
G1 X97.965 Y119.695 E22.21557
G1 X95.942 Y119.379 E22.31772
G1 X94.058 Y118.883 E22.41491
G1 X92.149 Y118.173 E22.51653
G1 X90.322 Y117.268 E22.61825
G1 X88.588 Y116.176 E22.72048
G1 X86.985 Y114.917 E22.82217
G1 X85.528 Y113.507 E22.92333
G1 X84.209 Y111.939 E23.02555
G1 X84.164 Y111.884 E23.02910
G1 X83.069 Y110.258 E23.12690
G1 X82.105 Y108.465 E23.22846
G1 X81.326 Y106.572 E23.33059
G1 X80.754 Y104.631 E23.43154
G1 X80.362 Y102.530 E23.53817
G1 X80.212 Y100.581 E23.63570
G1 X80.206 Y100.511 E23.63920
G1 X80.256 Y98.546 E23.73727
G1 X80.259 Y98.463 E23.74141
G1 X80.509 Y96.536 E23.83835
G1 X80.989 Y94.466 E23.94437
G1 X81.634 Y92.609 E24.04244
G1 X82.486 Y90.772 E24.14347
G1 X83.534 Y89.010 E24.24575
G1 X84.749 Y87.379 E24.34722
G1 X86.118 Y85.887 E24.44824
G1 X87.649 Y84.530 E24.55031
G1 X89.315 Y83.335 E24.65259
G1 X89.371 Y83.294 E24.65606
G1 X91.072 Y82.332 E24.75355
G1 X92.944 Y81.503 E24.85569
G1 X94.889 Y80.875 E24.95766
G1 X96.874 Y80.453 E25.05891
G1 X98.902 Y80.235 E25.16067
G1 X100.001 Y80.200 E25.21553
G1 X101.016 Y80.226 E25.26618
G1 X102.965 Y80.427 E25.36393
G1 X104.960 Y80.836 E25.46553
G1 X106.913 Y81.449 E25.56766
G1 X106.988 Y81.474 E25.57160
G1 X108.776 Y82.256 E25.66896
G1 X110.556 Y83.253 E25.77075
G1 X112.286 Y84.472 E25.87633
G1 X113.759 Y85.766 E25.97415
G1 X115.141 Y87.248 E26.07525
G1 X116.380 Y88.885 E26.17767
G1 X117.477 Y90.696 E26.28331
G1 X118.305 Y92.464 E26.38071
G1 X118.985 Y94.398 E26.48298
G1 X119.462 Y96.379 E26.58464
G1 X119.729 Y98.386 E26.68565
G1 X119.790 Y100.438 E26.78807
G1 X119.793 Y100.514 E26.79187
G1 X119.642 Y102.467 E26.88959
G1 X119.637 Y102.531 E26.89280
G1 X119.269 Y104.549 E26.99514
G1 X118.727 Y106.415 E27.09208
G1 X117.931 Y108.394 E27.19850
G1 X117.009 Y110.125 E27.29634
G1 X115.881 Y111.816 E27.39776
G1 X114.533 Y113.446 E27.50328
G1 X113.128 Y114.815 E27.60115
G0 F9000 X112.897 Y114.311
;TYPE:SKIN
G1 F1800 X108.830 Y110.245 E27.88807
G0 F9000 X109.146 Y109.995
G1 F1800 X113.183 Y114.032 E28.17290
G0 F9000 X113.470 Y113.753
G1 F1800 X109.378 Y109.661 E28.46161
G0 F9000 X109.505 Y109.222
G1 F1800 X113.757 Y113.474 E28.76161
G0 F9000 X114.043 Y113.195
G1 F1800 X109.419 Y108.571 E29.08786
G0 F9000 X108.651 Y107.802
G1 F1800 X86.813 Y85.965 E30.62861
G0 F9000 X86.513 Y86.230
G1 F1800 X107.999 Y107.716 E32.14457
G0 F9000 X107.558 Y107.840
G1 F1800 X86.239 Y86.522 E33.64870
G0 F9000 X85.968 Y86.817
G1 F1800 X107.221 Y108.069 E35.14818
G0 F9000 X106.968 Y108.382
G1 F1800 X85.697 Y87.112 E36.64893
G0 F9000 X85.426 Y87.406
G1 F1800 X106.811 Y108.791 E38.15776
G0 F9000 X106.819 Y109.365
G1 F1800 X85.156 Y87.701 E39.68623
G0 F9000 X84.913 Y88.024
G1 F1800 X111.965 Y115.076 E41.59490
G0 F9000 X111.650 Y115.327
G1 F1800 X84.671 Y88.348 E43.49841
G0 F9000 X84.429 Y88.672
G1 F1800 X111.336 Y115.578 E45.39681
G0 F9000 X111.007 Y115.815
G1 F1800 X84.188 Y88.996 E47.28904
G0 F9000 X83.949 Y89.323
G1 F1800 X110.660 Y116.034 E49.17364
G0 F9000 X110.315 Y116.254
G1 F1800 X83.739 Y89.678 E51.04872
G0 F9000 X83.528 Y90.033
G1 F1800 X109.969 Y116.474 E52.91428
G0 F9000 X109.623 Y116.694
G1 F1800 X83.317 Y90.388 E54.77031
G0 F9000 X83.106 Y90.743
G1 F1800 X109.254 Y116.891 E56.61519
G0 F9000 X108.878 Y117.080
G1 F1800 X82.902 Y91.105 E58.44790
G0 F9000 X82.723 Y91.491
G1 F1800 X108.502 Y117.270 E60.26675
G0 F9000 X108.125 Y117.459
G1 F1800 X82.544 Y91.878 E62.07163
G0 F9000 X82.365 Y92.265
G1 F1800 X107.745 Y117.644 E63.86229
G0 F9000 X107.335 Y117.801
G1 F1800 X82.187 Y92.652 E65.63665
G0 F9000 X82.028 Y93.059
G1 F1800 X106.926 Y117.957 E67.39334
G0 F9000 X106.517 Y118.113
G1 F1800 X81.883 Y93.480 E69.13137
G0 F9000 X81.738 Y93.900
G1 F1800 X106.107 Y118.269 E70.85073
G0 F9000 X105.677 Y118.405
G1 F1800 X81.593 Y94.321 E72.54999
G0 F9000 X81.455 Y94.749
G1 F1800 X105.231 Y118.525 E74.22751
G0 F9000 X104.785 Y118.644
G1 F1800 X81.349 Y95.209 E75.88101
G0 F9000 X81.243 Y95.668
G1 F1800 X104.339 Y118.764 E77.51056
G0 F9000 X103.881 Y118.872
G1 F1800 X81.136 Y96.127 E79.11534
G0 F9000 X81.030 Y96.587
G1 F1800 X103.394 Y118.950 E80.69321
G0 F9000 X102.906 Y119.028
G1 F1800 X80.962 Y97.084 E82.24148
G0 F9000 X80.897 Y97.584
G1 F1800 X102.419 Y119.107 E83.76001
G0 F9000 X101.925 Y119.179
G1 F1800 X80.832 Y98.085 E85.24827
G0 F9000 X80.775 Y98.594
G1 F1800 X101.387 Y119.206 E86.70255
G0 F9000 X100.848 Y119.233
G1 F1800 X80.761 Y99.146 E88.11980
G0 F9000 X80.747 Y99.697
G1 F1800 X100.310 Y119.261 E89.50011
G0 F9000 X107.854 Y110.399
G1 F1800 X112.280 Y114.825 E89.81239
G0 F9000 X112.594 Y114.573
G1 F1800 X108.421 Y110.401 E90.10678
G0 F9000 X114.312 Y112.898
G1 F1800 X87.113 Y85.699 E92.02582
G0 F9000 X87.413 Y85.433
G1 F1800 X114.568 Y112.588 E93.94175
G0 F9000 X114.824 Y112.279
G1 F1800 X87.713 Y85.167 E95.85461
G0 F9000 X88.017 Y84.905
G1 F1800 X115.080 Y111.969 E97.76409
G0 F9000 X115.336 Y111.659
G1 F1800 X88.346 Y84.669 E99.66838
G0 F9000 X88.676 Y84.434
G1 F1800 X115.577 Y111.334 E101.56635
G0 F9000 X115.803 Y110.995
G1 F1800 X89.006 Y84.198 E103.45703
G0 F9000 X89.335 Y83.961
G1 F1800 X116.029 Y110.655 E105.34043
G0 F9000 X116.256 Y110.316
G1 F1800 X89.670 Y83.730 E107.21622
G0 F9000 X90.030 Y83.524
G1 F1800 X116.482 Y109.977 E109.08259
G0 F9000 X116.688 Y109.617
G1 F1800 X90.390 Y83.319 E110.93805
G0 F9000 X90.750 Y83.114
G1 F1800 X116.885 Y109.248 E112.78198
G0 F9000 X117.082 Y108.879
G1 F1800 X91.110 Y82.908 E114.61441
G0 F9000 X91.485 Y82.717
G1 F1800 X117.279 Y108.511 E116.43432
G0 F9000 X117.473 Y108.139
G1 F1800 X91.877 Y82.544 E118.24022
G0 F9000 X92.269 Y82.370
G1 F1800 X117.634 Y107.735 E120.02986
G0 F9000 X117.796 Y107.331
G1 F1800 X92.662 Y82.196 E121.80323
G0 F9000 X93.053 Y82.022
