;Generated with Cura_SteamEngine 15.01
; Default start code
G28 ; Home extruder
G1 Z15 F100
M107 ; Turn off fan
G90 ; Absolute positioning
M82 ; Extruder in absolute mode
M190 S60
; Activate all used extruder
M104 T0 S195
G92 E0 ; Reset extruder position
; Wait for all used extruders to reach temperature
M109 T0 S195
;Layer count: 26
;LAYER:0
M107
G0 F9000 X45.310 Y31.426 Z0.300
;TYPE:SKIRT
G1 F1800 X45.716 Y30.892 E0.03347
G1 X46.196 Y30.418 E0.06712
G1 X46.736 Y30.022 E0.10053
G1 X47.327 Y29.703 E0.13404
G1 X47.962 Y29.473 E0.16773
G1 X48.714 Y29.315 E0.20607
G1 X53.641 Y29.300 E0.45188
G1 X54.386 Y29.330 E0.48908
G1 X55.053 Y29.477 E0.52315
G1 X55.053 Y29.300 E0.53198
G1 X71.953 Y29.300 E1.37513
G1 X71.953 Y30.800 E1.44996
G1 X77.053 Y30.800 E1.70440
G1 X77.053 Y34.241 E1.87607
G1 X77.201 Y34.436 E1.88829
G1 X77.528 Y35.025 E1.92190
G1 X77.772 Y35.685 E1.95700
G1 X77.935 Y36.439 E1.99549
G1 X77.952 Y38.300 E2.08834
G1 X80.953 Y38.300 E2.23806
G1 X80.953 Y51.344 E2.88883
G1 X81.193 Y51.562 E2.90500
G1 X82.556 Y52.762 E2.99560
G1 X83.866 Y53.872 E3.08127
G1 X85.238 Y54.994 E3.16969
G1 X86.591 Y56.061 E3.25566
G1 X88.003 Y57.133 E3.34410
G1 X89.457 Y58.195 E3.43393
G1 X89.529 Y58.248 E3.43839
G1 X90.885 Y59.201 E3.52108
G1 X90.886 Y59.200 E3.52115
G1 X91.335 Y59.515 E3.54851
G1 X92.172 Y60.548 E3.61484
G1 X92.540 Y61.187 E3.65163
G1 X92.814 Y61.806 E3.68541
G1 X93.008 Y62.421 E3.71758
G1 X93.138 Y63.027 E3.74850
G1 X93.207 Y63.678 E3.78116
G1 X93.204 Y64.434 E3.81888
G1 X93.027 Y65.533 E3.87441
G1 X92.790 Y66.256 E3.91237
G1 X92.520 Y66.849 E3.94488
G1 X92.196 Y67.405 E3.97698
G1 X91.815 Y67.923 E4.00907
G1 X91.266 Y68.532 E4.04997
G1 X89.661 Y69.659 E4.14781
G1 X88.249 Y70.684 E4.23486
G1 X86.945 Y71.666 E4.31630
G1 X85.585 Y72.727 E4.40236
G1 X84.259 Y73.801 E4.48749
G1 X82.985 Y74.869 E4.57043
G1 X81.711 Y75.975 E4.65460
G1 X80.407 Y77.148 E4.74211
G1 X79.148 Y78.321 E4.82796
G1 X78.023 Y79.408 E4.90600
G1 X76.788 Y80.641 E4.99307
G1 X75.633 Y81.835 E5.07595
G1 X74.499 Y83.048 E5.15879
G1 X73.330 Y84.342 E5.24579
G1 X72.258 Y85.573 E5.32723
G1 X71.171 Y86.864 E5.41143
G1 X70.072 Y88.218 E5.49843
G1 X69.030 Y89.548 E5.58272
G1 X68.044 Y90.851 E5.66424
G1 X67.034 Y92.235 E5.74972
G1 X66.046 Y93.641 E5.83546
G1 X65.780 Y94.020 E5.85856
G1 X65.133 Y94.596 E5.90177
G1 X64.604 Y94.978 E5.93433
G1 X64.041 Y95.298 E5.96664
G1 X63.447 Y95.561 E5.99905
G1 X62.831 Y95.755 E6.03127
G1 X62.225 Y95.885 E6.06219
G1 X61.574 Y95.954 E6.09485
G1 X60.897 Y95.951 E6.12862
G1 X60.246 Y95.879 E6.16130
G1 X59.617 Y95.741 E6.19343
G1 X58.998 Y95.537 E6.22594
G1 X58.405 Y95.268 E6.25843
G1 X57.844 Y94.941 E6.29083
G1 X57.330 Y94.561 E6.32272
G1 X56.722 Y94.016 E6.36345
G1 X55.596 Y92.409 E6.46135
G1 X54.601 Y91.040 E6.54578
G1 X53.510 Y89.591 E6.63627
G1 X52.548 Y88.361 E6.71418
G1 X51.451 Y87.005 E6.80119
G1 X50.383 Y85.731 E6.88413
G1 X49.277 Y84.457 E6.96830
G1 X48.167 Y83.223 E7.05111
G1 X46.994 Y81.963 E7.13700
G1 X45.805 Y80.730 E7.22245
G1 X44.652 Y79.574 E7.30391
G1 X43.419 Y78.381 E7.38950
G1 X42.204 Y77.246 E7.47245
G1 X40.910 Y76.077 E7.55946
G1 X39.680 Y75.005 E7.64086
G1 X38.387 Y73.917 E7.72516
G1 X37.059 Y72.838 E7.81053
G1 X35.705 Y71.778 E7.89632
G1 X34.401 Y70.791 E7.97791
G1 X33.017 Y69.781 E8.06339
G1 X31.611 Y68.793 E8.14912
G1 X31.229 Y68.525 E8.17240
G1 X30.654 Y67.877 E8.21562
G1 X30.230 Y67.289 E8.25179
G1 X29.724 Y66.291 E8.30761
G1 X29.499 Y65.585 E8.34458
G1 X29.367 Y64.972 E8.37587
G1 X29.300 Y64.316 E8.40876
G1 X29.302 Y63.647 E8.44214
G1 X29.373 Y62.992 E8.47501
G1 X29.513 Y62.361 E8.50726
G1 X29.738 Y61.674 E8.54332
G1 X30.249 Y60.677 E8.59922
G1 X30.690 Y60.078 E8.63633
G1 X31.236 Y59.469 E8.67713
G1 X32.850 Y58.338 E8.77546
G1 X34.255 Y57.317 E8.86211
G1 X35.563 Y56.332 E8.94380
G1 X36.911 Y55.279 E9.02914
G1 X38.245 Y54.199 E9.11477
G1 X39.519 Y53.131 E9.19771
G1 X40.799 Y52.020 E9.28227
G1 X41.553 Y51.342 E9.33285
G1 X41.553 Y38.300 E9.98352
G1 X44.553 Y38.300 E10.13319
G1 X44.553 Y34.172 E10.33914
G1 X44.582 Y33.367 E10.37933
G1 X44.743 Y32.648 E10.41609
G1 X44.982 Y32.017 E10.44975
G1 X45.310 Y31.426 E10.48347
G0 F9000 X94.249 Y60.677
G1 F1800 X94.690 Y60.078 E10.52058
G1 X95.236 Y59.469 E10.56139
G1 X96.850 Y58.338 E10.65971
G1 X98.255 Y57.317 E10.74636
G1 X99.563 Y56.332 E10.82805
G1 X100.911 Y55.279 E10.91339
G1 X102.245 Y54.199 E10.99902
G1 X103.519 Y53.131 E11.08196
G1 X104.799 Y52.020 E11.16652
G1 X105.553 Y51.342 E11.21711
G1 X105.553 Y38.300 E11.86778
G1 X108.553 Y38.300 E12.01745
G1 X108.553 Y34.172 E12.22339
G1 X108.582 Y33.367 E12.26358
G1 X108.743 Y32.648 E12.30034
G1 X108.982 Y32.017 E12.33400
G1 X109.310 Y31.426 E12.36773
G1 X109.716 Y30.892 E12.40119
G1 X110.196 Y30.418 E12.43485
G1 X110.736 Y30.022 E12.46826
G1 X111.327 Y29.703 E12.50176
G1 X111.962 Y29.473 E12.53546
G1 X112.714 Y29.315 E12.57379
G1 X117.641 Y29.300 E12.81960
G1 X118.386 Y29.330 E12.85680
G1 X119.053 Y29.477 E12.89088
G1 X119.053 Y29.300 E12.89971
G1 X135.953 Y29.300 E13.74285
G1 X135.953 Y30.800 E13.81769
G1 X141.053 Y30.800 E14.07213
G1 X141.053 Y34.241 E14.24380
G1 X141.201 Y34.436 E14.25601
G1 X141.528 Y35.025 E14.28962
G1 X141.772 Y35.685 E14.32473
G1 X141.935 Y36.439 E14.36322
G1 X141.952 Y38.300 E14.45607
G1 X144.953 Y38.300 E14.60579
G1 X144.953 Y51.344 E15.25655
G1 X145.193 Y51.562 E15.27273
G1 X146.556 Y52.762 E15.36333
G1 X147.866 Y53.872 E15.44899
G1 X149.238 Y54.994 E15.53742
G1 X150.591 Y56.061 E15.62338
G1 X152.003 Y57.133 E15.71183
G1 X153.457 Y58.195 E15.80166
G1 X153.529 Y58.248 E15.80612
G1 X154.885 Y59.201 E15.88881
G1 X154.886 Y59.200 E15.88888
G1 X155.335 Y59.515 E15.91624
G1 X156.172 Y60.548 E15.98257
G1 X156.540 Y61.187 E16.01936
G1 X156.814 Y61.806 E16.05313
G1 X157.008 Y62.421 E16.08530
G1 X157.138 Y63.027 E16.11623
G1 X157.207 Y63.678 E16.14889
G1 X157.204 Y64.434 E16.18660
G1 X157.027 Y65.533 E16.24214
G1 X156.790 Y66.256 E16.28010
G1 X156.520 Y66.849 E16.31261
G1 X156.196 Y67.405 E16.34471
G1 X155.815 Y67.923 E16.37679
G1 X155.266 Y68.532 E16.41770
G1 X153.661 Y69.659 E16.51554
G1 X152.249 Y70.684 E16.60259
G1 X150.945 Y71.666 E16.68403
G1 X149.585 Y72.727 E16.77009
G1 X148.259 Y73.801 E16.85522
G1 X146.985 Y74.869 E16.93816
G1 X145.711 Y75.975 E17.02233
G1 X144.407 Y77.148 E17.10983
G1 X143.148 Y78.321 E17.19568
G1 X142.023 Y79.408 E17.27373
G1 X140.788 Y80.641 E17.36079
G1 X139.633 Y81.835 E17.44367
G1 X138.499 Y83.048 E17.52652
G1 X137.330 Y84.342 E17.61352
G1 X136.258 Y85.573 E17.69495
G1 X135.171 Y86.864 E17.77915
G1 X134.072 Y88.218 E17.86616
G1 X133.030 Y89.548 E17.95045
G1 X132.044 Y90.851 E18.03197
G1 X131.034 Y92.235 E18.11745
G1 X130.046 Y93.641 E18.20318
G1 X129.780 Y94.020 E18.22628
G1 X129.133 Y94.596 E18.26950
G1 X128.604 Y94.978 E18.30205
G1 X128.041 Y95.298 E18.33436
G1 X127.447 Y95.561 E18.36677
G1 X126.831 Y95.755 E18.39899
G1 X126.225 Y95.885 E18.42991
G1 X125.574 Y95.954 E18.46257
G1 X124.897 Y95.951 E18.49635
G1 X124.246 Y95.879 E18.52903
G1 X123.617 Y95.741 E18.56115
G1 X122.998 Y95.537 E18.59367
G1 X122.405 Y95.268 E18.62616
G1 X121.844 Y94.941 E18.65855
G1 X121.330 Y94.561 E18.69044
G1 X120.722 Y94.016 E18.73118
G1 X119.596 Y92.409 E18.82907
G1 X118.601 Y91.040 E18.91351
G1 X117.510 Y89.591 E19.00400
G1 X116.548 Y88.361 E19.08190
G1 X115.451 Y87.005 E19.16892
G1 X114.383 Y85.731 E19.25186
G1 X113.277 Y84.457 E19.33603
G1 X112.167 Y83.223 E19.41884
G1 X110.994 Y81.963 E19.50472
G1 X109.805 Y80.730 E19.59018
G1 X108.652 Y79.574 E19.67163
G1 X107.419 Y78.381 E19.75723
G1 X106.204 Y77.246 E19.84018
G1 X104.910 Y76.077 E19.92718
G1 X103.680 Y75.005 E20.00858
G1 X102.387 Y73.917 E20.09289
G1 X101.059 Y72.838 E20.17825
G1 X99.705 Y71.778 E20.26404
G1 X98.401 Y70.791 E20.34564
G1 X97.017 Y69.781 E20.43111
G1 X95.611 Y68.793 E20.51685
G1 X95.229 Y68.525 E20.54013
G1 X94.654 Y67.877 E20.58335
G1 X94.230 Y67.289 E20.61952
G1 X93.724 Y66.291 E20.67534
G1 X93.499 Y65.585 E20.71231
G1 X93.367 Y64.972 E20.74359
G1 X93.300 Y64.316 E20.77649
G1 X93.302 Y63.647 E20.80987
G1 X93.373 Y62.992 E20.84274
G1 X93.513 Y62.361 E20.87498
G1 X93.738 Y61.674 E20.91105
G1 X94.249 Y60.677 E20.96694
G0 F9000 X111.327 Y96.703
G1 F1800 X111.962 Y96.473 E21.00064
G1 X112.714 Y96.315 E21.03897
G1 X117.641 Y96.300 E21.28478
G1 X118.386 Y96.330 E21.32198
G1 X119.053 Y96.477 E21.35606
G1 X119.053 Y96.300 E21.36489
G1 X135.953 Y96.300 E22.20803
G1 X135.953 Y97.800 E22.28287
G1 X141.053 Y97.800 E22.53731
G1 X141.053 Y101.241 E22.70898
G1 X141.201 Y101.436 E22.72119
G1 X141.528 Y102.025 E22.75480
G1 X141.772 Y102.685 E22.78991
G1 X141.935 Y103.439 E22.82839
G1 X141.952 Y105.300 E22.92124
G1 X144.953 Y105.300 E23.07096
G1 X144.953 Y118.344 E23.72173
G1 X145.193 Y118.562 E23.73791
G1 X146.556 Y119.762 E23.82851
G1 X147.866 Y120.872 E23.91417
G1 X149.238 Y121.994 E24.00259
G1 X150.591 Y123.061 E24.08856
G1 X152.003 Y124.133 E24.17701
G1 X153.457 Y125.195 E24.26684
G1 X153.529 Y125.248 E24.27130
G1 X154.885 Y126.201 E24.35399
G1 X154.886 Y126.200 E24.35406
G1 X155.335 Y126.515 E24.38142
G1 X156.172 Y127.548 E24.44775
G1 X156.540 Y128.187 E24.48454
G1 X156.814 Y128.806 E24.51831
G1 X157.008 Y129.421 E24.55048
G1 X157.138 Y130.027 E24.58140
G1 X157.207 Y130.678 E24.61407
G1 X157.204 Y131.434 E24.65178
G1 X157.027 Y132.533 E24.70732
G1 X156.790 Y133.256 E24.74528
G1 X156.520 Y133.849 E24.77778
G1 X156.196 Y134.405 E24.80989
G1 X155.815 Y134.923 E24.84197
G1 X155.266 Y135.532 E24.88288
G1 X153.661 Y136.659 E24.98072
G1 X152.249 Y137.684 E25.06777
G1 X150.945 Y138.666 E25.14921
G1 X149.585 Y139.727 E25.23527
G1 X148.259 Y140.801 E25.32040
G1 X146.985 Y141.869 E25.40334
G1 X145.711 Y142.975 E25.48751
G1 X144.407 Y144.148 E25.57501
G1 X143.148 Y145.321 E25.66086
G1 X142.023 Y146.408 E25.73891
G1 X140.788 Y147.641 E25.82597
G1 X139.633 Y148.835 E25.90885
G1 X138.499 Y150.048 E25.99169
G1 X137.330 Y151.342 E26.07870
G1 X136.258 Y152.573 E26.16013
G1 X135.171 Y153.864 E26.24433
G1 X134.072 Y155.218 E26.33133
G1 X133.030 Y156.548 E26.41563
G1 X132.044 Y157.851 E26.49715
G1 X131.034 Y159.235 E26.58263
G1 X130.046 Y160.641 E26.66836
G1 X129.780 Y161.020 E26.69146
G1 X129.133 Y161.596 E26.73468
G1 X128.604 Y161.978 E26.76723
G1 X128.041 Y162.298 E26.79954
G1 X127.447 Y162.561 E26.83195
G1 X126.831 Y162.755 E26.86417
G1 X126.225 Y162.885 E26.89509
G1 X125.574 Y162.954 E26.92775
G1 X124.897 Y162.951 E26.96153
G1 X124.246 Y162.879 E26.99420
G1 X123.617 Y162.741 E27.02633
G1 X122.998 Y162.537 E27.05885
G1 X122.405 Y162.268 E27.09133
G1 X121.844 Y161.941 E27.12373
G1 X121.330 Y161.561 E27.15562
G1 X120.722 Y161.016 E27.19636
G1 X119.596 Y159.409 E27.29425
G1 X118.601 Y158.040 E27.37869
G1 X117.510 Y156.591 E27.46918
G1 X116.548 Y155.361 E27.54708
G1 X115.451 Y154.005 E27.63410
G1 X114.383 Y152.731 E27.71704
G1 X113.277 Y151.457 E27.80121
G1 X112.167 Y150.223 E27.88402
G1 X110.994 Y148.963 E27.96990
G1 X109.805 Y147.730 E28.05536
G1 X108.652 Y146.574 E28.13681
G1 X107.419 Y145.381 E28.22241
G1 X106.204 Y144.246 E28.30536
G1 X104.910 Y143.077 E28.39236
G1 X103.680 Y142.005 E28.47376
G1 X102.387 Y140.917 E28.55807
G1 X101.059 Y139.838 E28.64343
G1 X99.705 Y138.778 E28.72922
G1 X98.401 Y137.791 E28.81082
G1 X97.017 Y136.781 E28.89629
G1 X95.611 Y135.793 E28.98203
G1 X95.229 Y135.525 E29.00531
G1 X94.654 Y134.877 E29.04853
G1 X94.230 Y134.289 E29.08470
G1 X93.724 Y133.291 E29.14052
G1 X93.499 Y132.585 E29.17749
G1 X93.367 Y131.972 E29.20877
G1 X93.300 Y131.316 E29.24167
G1 X93.302 Y130.647 E29.27505
G1 X93.373 Y129.992 E29.30792
G1 X93.513 Y129.361 E29.34016
G1 X93.738 Y128.674 E29.37623
G1 X94.249 Y127.677 E29.43212
G1 X94.690 Y127.078 E29.46923
G1 X95.236 Y126.469 E29.51004
G1 X96.850 Y125.338 E29.60836
G1 X98.255 Y124.317 E29.69501
G1 X99.563 Y123.332 E29.77670
G1 X100.911 Y122.279 E29.86204
G1 X102.245 Y121.199 E29.94767
G1 X103.519 Y120.131 E30.03061
G1 X104.799 Y119.020 E30.11517
G1 X105.553 Y118.342 E30.16576
G1 X105.553 Y105.300 E30.81643
G1 X108.553 Y105.300 E30.96610
G1 X108.553 Y101.172 E31.17204
G1 X108.582 Y100.367 E31.21223
G1 X108.743 Y99.648 E31.24899
G1 X108.982 Y99.017 E31.28265
G1 X109.310 Y98.426 E31.31638
G1 X109.716 Y97.892 E31.34984
G1 X110.196 Y97.418 E31.38350
G1 X110.736 Y97.022 E31.41691
G1 X111.327 Y96.703 E31.45041
G0 F9000 X80.953 Y105.300
G1 F1800 X80.953 Y118.344 E32.10118
G1 X81.193 Y118.562 E32.11736
G1 X82.556 Y119.762 E32.20796
G1 X83.866 Y120.872 E32.29362
G1 X85.238 Y121.994 E32.38204
G1 X86.591 Y123.061 E32.46801
G1 X88.003 Y124.133 E32.55646
G1 X89.457 Y125.195 E32.64629
G1 X89.529 Y125.248 E32.65075
G1 X90.885 Y126.201 E32.73343
G1 X90.886 Y126.200 E32.73350
G1 X91.335 Y126.515 E32.76087
G1 X92.172 Y127.548 E32.82720
G1 X92.540 Y128.187 E32.86399
G1 X92.814 Y128.806 E32.89776
G1 X93.008 Y129.421 E32.92993
G1 X93.138 Y130.027 E32.96085
G1 X93.207 Y130.678 E32.99351
G1 X93.204 Y131.434 E33.03123
G1 X93.027 Y132.533 E33.08677
G1 X92.790 Y133.256 E33.12473
G1 X92.520 Y133.849 E33.15723
G1 X92.196 Y134.405 E33.18934
G1 X91.815 Y134.923 E33.22142
G1 X91.266 Y135.532 E33.26233
G1 X89.661 Y136.659 E33.36017
G1 X88.249 Y137.684 E33.44722
G1 X86.945 Y138.666 E33.52866
G1 X85.585 Y139.727 E33.61471
G1 X84.259 Y140.801 E33.69985
G1 X82.985 Y141.869 E33.78279
G1 X81.711 Y142.975 E33.86696
G1 X80.407 Y144.148 E33.95446
G1 X79.148 Y145.321 E34.04031
G1 X78.023 Y146.408 E34.11836
G1 X76.788 Y147.641 E34.20542
G1 X75.633 Y148.835 E34.28830
G1 X74.499 Y150.048 E34.37114
G1 X73.330 Y151.342 E34.45814
G1 X72.258 Y152.573 E34.53958
G1 X71.171 Y153.864 E34.62378
G1 X70.072 Y155.218 E34.71078
G1 X69.030 Y156.548 E34.79508
G1 X68.044 Y157.851 E34.87660
G1 X67.034 Y159.235 E34.96208
G1 X66.046 Y160.641 E35.04781
G1 X65.780 Y161.020 E35.07091
G1 X65.133 Y161.596 E35.11413
G1 X64.604 Y161.978 E35.14668
G1 X64.041 Y162.298 E35.17899
G1 X63.447 Y162.561 E35.21140
G1 X62.831 Y162.755 E35.24362
G1 X62.225 Y162.885 E35.27454
G1 X61.574 Y162.954 E35.30720
G1 X60.897 Y162.951 E35.34098
G1 X60.246 Y162.879 E35.37365
G1 X59.617 Y162.741 E35.40578
G1 X58.998 Y162.537 E35.43830
G1 X58.405 Y162.268 E35.47078
G1 X57.844 Y161.941 E35.50318
G1 X57.330 Y161.561 E35.53507
G1 X56.722 Y161.016 E35.57581
G1 X55.596 Y159.409 E35.67370
G1 X54.601 Y158.040 E35.75813
G1 X53.510 Y156.591 E35.84863
G1 X52.548 Y155.361 E35.92653
G1 X51.451 Y154.005 E36.01355
G1 X50.383 Y152.731 E36.09649
G1 X49.277 Y151.457 E36.18066
G1 X48.167 Y150.223 E36.26346
G1 X46.994 Y148.963 E36.34935
G1 X45.805 Y147.730 E36.43481
G1 X44.652 Y146.574 E36.51626
G1 X43.419 Y145.381 E36.60186
G1 X42.204 Y144.246 E36.68481
G1 X40.910 Y143.077 E36.77181
G1 X39.680 Y142.005 E36.85321
G1 X38.387 Y140.917 E36.93752
G1 X37.059 Y139.838 E37.02288
G1 X35.705 Y138.778 E37.10867
G1 X34.401 Y137.791 E37.19026
G1 X33.017 Y136.781 E37.27574
G1 X31.611 Y135.793 E37.36148
G1 X31.229 Y135.525 E37.38476
G1 X30.654 Y134.877 E37.42798
G1 X30.230 Y134.289 E37.46414
G1 X29.724 Y133.291 E37.51997
G1 X29.499 Y132.585 E37.55694
G1 X29.367 Y131.972 E37.58822
G1 X29.300 Y131.316 E37.62112
G1 X29.302 Y130.647 E37.65449
G1 X29.373 Y129.992 E37.68736
G1 X29.513 Y129.361 E37.71961
G1 X29.738 Y128.674 E37.75568
G1 X30.249 Y127.677 E37.81157
G1 X30.690 Y127.078 E37.84868
G1 X31.236 Y126.469 E37.88949
G1 X32.850 Y125.338 E37.98781
G1 X34.255 Y124.317 E38.07446
G1 X35.563 Y123.332 E38.15615
G1 X36.911 Y122.279 E38.24149
G1 X38.245 Y121.199 E38.32712
G1 X39.519 Y120.131 E38.41006
G1 X40.799 Y119.020 E38.49462
G1 X41.553 Y118.342 E38.54521
G1 X41.553 Y105.300 E39.19588
G1 X44.553 Y105.300 E39.34555
G1 X44.553 Y101.172 E39.55149
G1 X44.582 Y100.367 E39.59168
G1 X44.743 Y99.648 E39.62844
G1 X44.982 Y99.017 E39.66210
G1 X45.310 Y98.426 E39.69582
G1 X45.716 Y97.892 E39.72929
G1 X46.196 Y97.418 E39.76295
G1 X46.736 Y97.022 E39.79636
G1 X47.327 Y96.703 E39.82986
G1 X47.962 Y96.473 E39.86356
G1 X48.714 Y96.315 E39.90189
G1 X53.641 Y96.300 E40.14770
G1 X54.386 Y96.330 E40.18490
G1 X55.053 Y96.477 E40.21898
G1 X55.053 Y96.300 E40.22781
G1 X71.953 Y96.300 E41.07095
G1 X71.953 Y97.800 E41.14579
G1 X77.053 Y97.800 E41.40023
G1 X77.053 Y101.241 E41.57190
G1 X77.201 Y101.436 E41.58411
