;Generated with Cura_SteamEngine 15.01
; Default start code
G28 ; Home extruder
G1 Z15 F100
M107 ; Turn off fan
G90 ; Absolute positioning
M82 ; Extruder in absolute mode
M190 S60
; Activate all used extruder
M104 T0 S195
G92 E0 ; Reset extruder position
; Wait for all used extruders to reach temperature
M109 T0 S195
;Layer count: 12
;LAYER:0
M107
G0 F9000 X78.841 Y96.005 Z0.300
G0 X78.474 Y96.506
;TYPE:SKIRT
G1 F1800 X78.841 Y96.005 E0.03098
G1 X81.812 Y93.844 E0.21427
G1 X84.395 Y91.767 E0.37963
G1 X86.868 Y89.557 E0.54510
G1 X89.258 Y87.187 E0.71302
G1 X89.391 Y87.054 E0.72240
G1 X91.430 Y84.791 E0.87437
G1 X93.508 Y82.249 E1.03818
G1 X95.513 Y79.517 E1.20724
G1 X95.512 Y79.517 E1.20729
G1 X96.012 Y78.833 E1.24956
G1 X97.440 Y77.797 E1.33758
G1 X98.531 Y77.444 E1.39479
G1 X99.103 Y77.253 E1.42488
G1 X100.880 Y77.253 E1.51353
G1 X101.982 Y77.610 E1.57132
G1 X102.572 Y77.806 E1.60234
G1 X103.493 Y78.474 E1.65910
G1 X103.994 Y78.841 E1.69009
G1 X106.191 Y81.861 E1.87641
G1 X106.469 Y82.222 E1.89914
G1 X108.397 Y84.600 E2.05187
G1 X110.599 Y87.045 E2.21603
G1 X112.945 Y89.391 E2.38155
G1 X115.208 Y91.430 E2.53352
G1 X117.750 Y93.508 E2.69733
G1 X120.482 Y95.513 E2.86639
G1 X120.482 Y95.512 E2.86644
G1 X121.166 Y96.012 E2.90871
G1 X122.202 Y97.440 E2.99673
G1 X122.545 Y98.501 E3.05236
G1 X122.746 Y99.103 E3.08402
G1 X122.746 Y100.880 E3.17268
G1 X122.389 Y101.982 E3.23047
G1 X122.193 Y102.572 E3.26149
G1 X121.525 Y103.493 E3.31825
G1 X121.158 Y103.994 E3.34923
G1 X118.187 Y106.155 E3.53252
G1 X115.604 Y108.232 E3.69788
G1 X113.131 Y110.442 E3.86335
G1 X110.741 Y112.812 E4.03127
G1 X110.599 Y112.954 E4.04129
G1 X108.397 Y115.399 E4.20545
G1 X106.326 Y117.953 E4.36950
G1 X104.488 Y120.479 E4.52535
G1 X103.987 Y121.166 E4.56777
G1 X102.559 Y122.202 E4.65579
G1 X101.468 Y122.555 E4.71300
G1 X100.896 Y122.746 E4.74308
G1 X99.119 Y122.746 E4.83174
G1 X98.017 Y122.389 E4.88953
G1 X97.427 Y122.193 E4.92055
G1 X96.506 Y121.525 E4.97731
G1 X96.005 Y121.158 E5.00829
G1 X93.844 Y118.187 E5.19158
G1 X91.767 Y115.604 E5.35694
G1 X89.557 Y113.131 E5.52240
G1 X87.187 Y110.741 E5.69033
G1 X87.054 Y110.608 E5.69971
G1 X84.791 Y108.569 E5.85168
G1 X82.249 Y106.491 E6.01548
G1 X79.517 Y104.486 E6.18455
G1 X79.517 Y104.487 E6.18460
G1 X78.833 Y103.987 E6.22687
G1 X77.797 Y102.559 E6.31489
G1 X77.444 Y101.468 E6.37210
G1 X77.253 Y100.896 E6.40218
G1 X77.253 Y99.119 E6.49084
G1 X77.610 Y98.017 E6.54863
G1 X77.806 Y97.427 E6.57965
G1 X78.474 Y96.506 E6.63641
G0 F9000 X78.798 Y96.742
G1 F1800 X79.127 Y96.292 E6.66422
G1 X82.062 Y94.157 E6.84529
G1 X84.661 Y92.067 E7.01168
G1 X87.134 Y89.857 E7.17715
G1 X89.541 Y87.470 E7.34627
G1 X89.689 Y87.322 E7.35671
G1 X91.714 Y85.074 E7.50766
G1 X93.829 Y82.487 E7.67437
G1 X95.840 Y79.747 E7.84393
G1 X96.298 Y79.120 E7.88267
G1 X97.623 Y78.158 E7.96436
G1 X98.654 Y77.824 E8.01843
G1 X99.168 Y77.653 E8.04546
G1 X100.817 Y77.653 E8.12772
G1 X101.858 Y77.990 E8.18231
G1 X102.387 Y78.166 E8.21013
G1 X103.257 Y78.798 E8.26378
G1 X103.707 Y79.127 E8.29159
G1 X105.870 Y82.100 E8.47501
G1 X106.142 Y82.454 E8.49728
G1 X108.091 Y84.858 E8.65169
G1 X110.321 Y87.333 E8.81789
G1 X112.677 Y89.689 E8.98412
G1 X114.925 Y91.714 E9.13507
G1 X117.512 Y93.829 E9.30178
G1 X120.252 Y95.840 E9.47134
G1 X120.879 Y96.298 E9.51008
G1 X121.841 Y97.623 E9.59177
G1 X122.166 Y98.627 E9.64442
G1 X122.346 Y99.168 E9.67286
G1 X122.346 Y100.817 E9.75513
G1 X122.009 Y101.858 E9.80972
G1 X121.833 Y102.387 E9.83754
G1 X121.201 Y103.257 E9.89119
G1 X120.872 Y103.707 E9.91900
G1 X117.937 Y105.842 E10.10007
G1 X115.338 Y107.932 E10.26646
G1 X112.865 Y110.142 E10.43192
G1 X110.458 Y112.529 E10.60104
G1 X110.321 Y112.666 E10.61071
G1 X108.091 Y115.141 E10.77692
G1 X106.003 Y117.717 E10.94235
G1 X104.165 Y120.244 E11.09824
G1 X103.701 Y120.879 E11.13748
G1 X102.376 Y121.841 E11.21917
G1 X101.345 Y122.175 E11.27324
G1 X100.831 Y122.346 E11.30026
G1 X99.182 Y122.346 E11.38253
G1 X98.141 Y122.009 E11.43712
G1 X97.612 Y121.833 E11.46494
G1 X96.742 Y121.201 E11.51859
G1 X96.292 Y120.872 E11.54640
G1 X94.157 Y117.937 E11.72747
G1 X92.067 Y115.338 E11.89386
G1 X89.857 Y112.865 E12.05932
G1 X87.470 Y110.458 E12.22844
G1 X87.322 Y110.310 E12.23889
G1 X85.074 Y108.285 E12.38983
G1 X82.487 Y106.170 E12.55654
G1 X79.747 Y104.159 E12.72611
G1 X79.120 Y103.701 E12.76485
G1 X78.158 Y102.376 E12.84654
G1 X77.824 Y101.345 E12.90061
G1 X77.653 Y100.831 E12.92763
G1 X77.653 Y99.182 E13.00990
G1 X77.990 Y98.141 E13.06449
G1 X78.166 Y97.612 E13.09230
G1 X78.798 Y96.742 E13.14595
G1 F2400 E9.14595
G0 F9000 X81.844 Y99.014
;TYPE:WALL-INNER
G1 F2400 E13.14595
G1 F1800 X84.373 Y97.175 E13.30196
G1 X87.115 Y94.970 E13.47750
G1 X89.738 Y92.626 E13.65300
G1 X92.227 Y90.158 E13.82787
G1 X94.604 Y87.543 E14.00418
G1 X96.831 Y84.819 E14.17972
G1 X98.904 Y81.994 E14.35453
G1 X99.014 Y81.844 E14.36381
G1 X99.367 Y81.588 E14.38557
G1 X99.783 Y81.453 E14.40739
G1 X100.217 Y81.453 E14.42904
G1 X100.631 Y81.587 E14.45075
G1 X100.985 Y81.844 E14.47257
G1 X102.821 Y84.367 E14.62825
G1 X103.170 Y84.822 E14.65686
G1 X105.207 Y87.334 E14.81821
G1 X107.562 Y89.948 E14.99374
G1 X110.051 Y92.437 E15.16935
G1 X112.456 Y94.604 E15.33086
G1 X115.180 Y96.831 E15.50640
G1 X118.005 Y98.904 E15.68121
G1 X118.155 Y99.014 E15.69049
G1 X118.411 Y99.367 E15.71225
G1 X118.546 Y99.783 E15.73407
G1 X118.546 Y100.217 E15.75572
G1 X118.412 Y100.631 E15.77743
G1 X118.155 Y100.985 E15.79925
G1 X115.626 Y102.824 E15.95526
G1 X112.884 Y105.029 E16.13080
G1 X110.261 Y107.373 E16.30630
G1 X107.772 Y109.841 E16.48117
G1 X105.207 Y112.665 E16.67151
G1 X102.990 Y115.399 E16.84712
G1 X101.094 Y118.005 E17.00790
G1 X100.984 Y118.156 E17.01722
G1 X100.632 Y118.411 E17.03890
G1 X100.216 Y118.546 E17.06072
G1 X99.782 Y118.546 E17.08238
G1 X99.368 Y118.412 E17.10409
G1 X99.014 Y118.155 E17.12591
G1 X97.175 Y115.626 E17.28191
G1 X94.970 Y112.884 E17.45746
G1 X92.626 Y110.261 E17.63296
G1 X90.158 Y107.772 E17.80783
G1 X87.543 Y105.395 E17.98414
G1 X84.819 Y103.168 E18.15968
G1 X81.994 Y101.095 E18.33449
G1 X81.844 Y100.985 E18.34377
G1 X81.588 Y100.632 E18.36553
G1 X81.453 Y100.216 E18.38735
G1 X81.453 Y99.782 E18.40900
G1 X81.587 Y99.368 E18.43071
G1 X81.844 Y99.014 E18.45253
G0 F9000 X85.954 Y99.453
G1 F1800 X85.909 Y99.590 E18.45973
G1 X85.909 Y100.407 E18.50049
G1 X86.117 Y101.047 E18.53406
G1 X86.163 Y101.185 E18.54132
G1 X86.601 Y101.788 E18.57850
G1 X89.365 Y104.950 E18.78803
G1 X90.106 Y105.736 E18.84192
G1 X91.843 Y107.549 E18.96718
G1 X92.607 Y108.313 E19.02109
G1 X94.425 Y110.042 E19.14626
G1 X95.212 Y110.784 E19.20022
G1 X98.532 Y113.667 E19.41959
G1 X99.055 Y113.927 E19.44873
G1 X99.170 Y113.984 E19.45513
G1 X99.752 Y114.093 E19.48467
G1 X99.872 Y114.118 E19.49079
G1 X100.472 Y114.063 E19.52085
G1 X100.601 Y114.049 E19.52732
G1 X101.145 Y113.839 E19.55641
G1 X101.267 Y113.792 E19.56294
G1 X101.793 Y113.394 E19.59584
G1 X104.950 Y110.634 E19.80505
G1 X105.736 Y109.893 E19.85894
G1 X107.549 Y108.156 E19.98421
G1 X108.313 Y107.392 E20.03811
G1 X110.042 Y105.574 E20.16328
G1 X110.784 Y104.787 E20.21725
G1 X113.669 Y101.464 E20.43679
G1 X113.945 Y100.896 E20.46830
G1 X114.005 Y100.769 E20.47531
G1 X114.097 Y100.147 E20.50668
G1 X114.121 Y100.005 E20.51386
G1 X114.026 Y99.362 E20.54629
G1 X114.003 Y99.223 E20.55332
G1 X113.669 Y98.535 E20.59147
G1 X111.099 Y95.571 E20.78720
G1 X110.045 Y94.429 E20.86473
G1 X108.313 Y92.608 E20.99011
G1 X107.549 Y91.844 E21.04401
G1 X105.738 Y90.107 E21.16920
G1 X104.951 Y89.366 E21.22313
G1 X101.793 Y86.605 E21.43241
G1 X101.370 Y86.285 E21.45887
G1 X101.267 Y86.207 E21.46532
G1 X100.714 Y85.994 E21.49488
G1 X100.593 Y85.948 E21.50134
G1 X100.005 Y85.894 E21.53080
G1 X99.884 Y85.881 E21.53687
G1 X99.292 Y85.991 E21.56691
G1 X99.166 Y86.017 E21.57333
G1 X98.533 Y86.332 E21.60861
G1 X95.571 Y88.900 E21.80419
G1 X94.429 Y89.954 E21.88172
G1 X92.608 Y91.686 E22.00710
G1 X91.844 Y92.450 E22.06100
G1 X90.107 Y94.261 E22.18620
G1 X89.366 Y95.048 E22.24013
G1 X86.601 Y98.211 E22.44972
G1 X86.247 Y98.699 E22.47980
G1 X86.162 Y98.815 E22.48697
G1 X85.954 Y99.453 E22.52045
G0 F9000 X86.335 Y99.576
;TYPE:WALL-OUTER
G1 F1800 X86.309 Y99.655 E22.52460
G1 X86.309 Y100.344 E22.55898
G1 X86.497 Y100.922 E22.58930
G1 X86.523 Y101.000 E22.59340
G1 X86.914 Y101.539 E22.62662
G1 X89.661 Y104.681 E22.83484
G1 X90.396 Y105.461 E22.88831
G1 X92.129 Y107.269 E23.01326
G1 X92.886 Y108.026 E23.06667
G1 X95.480 Y110.487 E23.24506
G1 X98.756 Y113.332 E23.46153
G1 X99.299 Y113.602 E23.49178
G1 X99.825 Y113.700 E23.51848
G1 X99.895 Y113.714 E23.52204
G1 X100.432 Y113.665 E23.54894
G1 X100.505 Y113.657 E23.55260
G1 X101.071 Y113.438 E23.58288
G1 X101.540 Y113.083 E23.61223
G1 X104.681 Y110.338 E23.82034
G1 X105.461 Y109.603 E23.87381
G1 X107.269 Y107.870 E23.99876
G1 X108.026 Y107.113 E24.05217
G1 X110.487 Y104.519 E24.23056
G1 X113.332 Y101.242 E24.44706
G1 X113.584 Y100.723 E24.47585
G1 X113.618 Y100.651 E24.47982
G1 X113.703 Y100.081 E24.50857
G1 X113.716 Y100.002 E24.51257
G1 X113.631 Y99.424 E24.54171
G1 X113.618 Y99.346 E24.54566
G1 X113.332 Y98.757 E24.57833
G1 X110.801 Y95.838 E24.77108
G1 X109.753 Y94.702 E24.84818
G1 X108.027 Y92.887 E24.97314
G1 X107.269 Y92.130 E25.02659
G1 X105.462 Y90.397 E25.15150
G1 X104.682 Y89.662 E25.20497
G1 X101.540 Y86.916 E25.41315
G1 X101.129 Y86.604 E25.43890
G1 X101.071 Y86.560 E25.44253
G1 X100.503 Y86.341 E25.47290
G1 X99.973 Y86.293 E25.49945
G1 X99.899 Y86.285 E25.50316
G1 X99.369 Y86.384 E25.53006
G1 X99.297 Y86.398 E25.53372
G1 X98.756 Y86.667 E25.56386
G1 X95.838 Y89.198 E25.75658
G1 X94.702 Y90.246 E25.83368
G1 X92.887 Y91.972 E25.95864
G1 X92.130 Y92.730 E26.01209
G1 X90.397 Y94.537 E26.13700
G1 X89.662 Y95.317 E26.19047
G1 X86.914 Y98.460 E26.39876
G1 X86.523 Y99.000 E26.43202
G1 X86.335 Y99.576 E26.46225
G0 F9000 X86.055 Y99.473
G0 X84.300 Y97.102
G0 X84.130 Y96.857
G1 F1800 X86.856 Y94.665 E26.63676
G1 X89.464 Y92.335 E26.81124
G1 X92.147 Y89.673 E26.99980
G1 X94.301 Y87.282 E27.16035
G1 X96.515 Y84.574 E27.33486
G1 X98.727 Y81.558 E27.52146
G1 X99.184 Y81.226 E27.54964
G1 X99.701 Y81.059 E27.57675
G1 X100.281 Y81.053 E27.60569
G1 X100.796 Y81.220 E27.63270
G1 X100.815 Y81.226 E27.63369
G1 X101.269 Y81.556 E27.66169
G1 X103.141 Y84.128 E27.82040
G1 X103.484 Y84.574 E27.84847
G1 X105.511 Y87.074 E28.00904
G1 X107.852 Y89.673 E28.18355
G1 X110.326 Y92.147 E28.35811
G1 X112.717 Y94.301 E28.51866
G1 X115.425 Y96.515 E28.69317
G1 X118.441 Y98.727 E28.87977
G1 X118.773 Y99.184 E28.90795
G1 X118.940 Y99.701 E28.93506
G1 X118.946 Y100.281 E28.96400
G1 X118.779 Y100.796 E28.99101
G1 X118.773 Y100.815 E28.99200
G1 X118.443 Y101.269 E29.02000
G1 X115.869 Y103.142 E29.17882
G1 X113.143 Y105.334 E29.35333
G1 X110.535 Y107.664 E29.52781
G1 X107.852 Y110.326 E29.71637
G1 X105.511 Y112.925 E29.89088
G1 X103.307 Y115.643 E30.06546
G1 X101.269 Y118.443 E30.23824
G1 X100.815 Y118.773 E30.26624
G1 X100.298 Y118.940 E30.29335
G1 X99.718 Y118.946 E30.32228
G1 X99.203 Y118.779 E30.34930
G1 X99.184 Y118.773 E30.35029
G1 X98.730 Y118.443 E30.37829
G1 X96.857 Y115.869 E30.53711
G1 X94.665 Y113.143 E30.71162
G1 X92.335 Y110.535 E30.88610
G1 X89.673 Y107.852 E31.07466
G1 X87.282 Y105.698 E31.23522
G1 X84.574 Y103.484 E31.40973
G1 X81.558 Y101.272 E31.59633
G1 X81.226 Y100.815 E31.62451
G1 X81.059 Y100.298 E31.65161
G1 X81.053 Y99.718 E31.68055
G1 X81.220 Y99.203 E31.70756
G1 X81.226 Y99.184 E31.70855
G1 X81.556 Y98.730 E31.73656
G1 X84.130 Y96.857 E31.89537
G0 F9000 X84.499 Y97.227
;TYPE:SKIN
G1 F1800 X86.049 Y98.777 E32.00473
G0 F9000 X86.282 Y98.444
G1 F1800 X84.813 Y96.975 E32.10838
G0 F9000 X85.126 Y96.723
G1 F1800 X86.521 Y98.118 E32.20680
G0 F9000 X86.785 Y97.816
G1 F1800 X85.440 Y96.471 E32.30170
G0 F9000 X85.753 Y96.218
G1 F1800 X87.049 Y97.514 E32.39314
G0 F9000 X87.313 Y97.213
G1 F1800 X86.067 Y95.967 E32.48105
G0 F9000 X86.380 Y95.714
G1 F1800 X87.577 Y96.911 E32.56551
G0 F9000 X87.841 Y96.609
G1 F1800 X86.694 Y95.462 E32.64644
G0 F9000 X87.008 Y95.210
G1 F1800 X88.104 Y96.307 E32.72380
G0 F9000 X88.369 Y96.006
G1 F1800 X87.315 Y94.952 E32.79817
G0 F9000 X87.614 Y94.685
G1 F1800 X88.633 Y95.704 E32.87006
G0 F9000 X88.896 Y95.402
G1 F1800 X87.913 Y94.418 E32.93945
G0 F9000 X88.211 Y94.151
G1 F1800 X89.160 Y95.100 E33.00641
G0 F9000 X89.431 Y94.805
G1 F1800 X88.510 Y93.884 E33.07139
G0 F9000 X88.809 Y93.617
G1 F1800 X89.707 Y94.516 E33.13478
G0 F9000 X89.984 Y94.226
G1 F1800 X89.108 Y93.350 E33.19659
G0 F9000 X89.406 Y93.083
G1 F1800 X90.260 Y93.937 E33.25685
G0 F9000 X90.536 Y93.647
G1 F1800 X89.705 Y92.816 E33.31548
G0 F9000 X89.994 Y92.540
G1 F1800 X90.813 Y93.358 E33.37323
G0 F9000 X91.088 Y93.068
G1 F1800 X90.279 Y92.259 E33.43031
G0 F9000 X90.563 Y91.977
G1 F1800 X91.365 Y92.779 E33.48689
G0 F9000 X91.641 Y92.489
G1 F1800 X90.846 Y91.695 E33.54295
G0 F9000 X91.131 Y91.414
G1 F1800 X91.921 Y92.203 E33.59865
G0 F9000 X92.203 Y91.921
G1 F1800 X91.414 Y91.131 E33.65435
G0 F9000 X91.699 Y90.850
G1 F1800 X92.486 Y91.638 E33.70992
G0 F9000 X92.775 Y91.361
G1 F1800 X91.983 Y90.569 E33.76580
G0 F9000 X92.266 Y90.286
G1 F1800 X93.065 Y91.085 E33.82217
G0 F9000 X93.355 Y90.809
G1 F1800 X92.538 Y89.992 E33.87981
G0 F9000 X92.807 Y89.696
G1 F1800 X93.644 Y90.533 E33.93887
G0 F9000 X93.934 Y90.257
G1 F1800 X93.077 Y89.400 E33.99934
G0 F9000 X93.346 Y89.103
G1 F1800 X94.224 Y89.981 E34.06128
G0 F9000 X94.516 Y89.708
G1 F1800 X93.615 Y88.807 E34.12485
G0 F9000 X93.885 Y88.511
G1 F1800 X94.810 Y89.436 E34.19012
G0 F9000 X95.105 Y89.165
G1 F1800 X94.154 Y88.215 E34.25718
G0 F9000 X94.423 Y87.918
G1 F1800 X95.399 Y88.893 E34.32601
G0 F9000 X95.699 Y88.628
G1 F1800 X94.692 Y87.621 E34.39706
G0 F9000 X94.947 Y87.310
G1 F1800 X96.002 Y88.365 E34.47149
G0 F9000 X96.305 Y88.103
G1 F1800 X95.202 Y86.999 E34.54935
G0 F9000 X95.456 Y86.688
G1 F1800 X96.608 Y87.840 E34.63063
G0 F9000 X96.911 Y87.577
G1 F1800 X95.711 Y86.377 E34.71530
G0 F9000 X95.964 Y86.065
G1 F1800 X97.214 Y87.314 E34.80346
G0 F9000 X97.517 Y87.051
G1 F1800 X96.219 Y85.754 E34.89500
G0 F9000 X96.474 Y85.443
G1 F1800 X97.819 Y86.788 E34.98990
G0 F9000 X98.123 Y86.526
G1 F1800 X96.728 Y85.132 E35.08829
G0 F9000 X96.979 Y84.817
G1 F1800 X98.425 Y86.263 E35.19031
G0 F9000 X98.794 Y86.066
G1 F1800 X97.218 Y84.490 E35.30151
G0 F9000 X97.458 Y84.164
G1 F1800 X99.183 Y85.889 E35.42321
G0 F9000 X99.659 Y85.800
G1 F1800 X97.698 Y83.838 E35.56161
G0 F9000 X97.937 Y83.512
G1 F1800 X100.218 Y85.793 E35.72255
G0 F9000 X100.946 Y85.955
G1 F1800 X98.176 Y83.186 E35.91795
G0 F9000 X98.415 Y82.859
G1 F1800 X103.463 Y87.907 E36.27411
G0 F9000 X104.616 Y86.797
G1 F1800 X99.492 Y81.672 E36.63567
G0 F9000 X99.148 Y81.894
G1 F1800 X118.103 Y100.850 E37.97309
G0 F9000 X117.788 Y101.100
G1 F1800 X98.895 Y82.207 E39.30609
G0 F9000 X98.655 Y82.533
G1 F1800 X117.461 Y101.339 E40.63295
G0 F9000 X117.133 Y101.577
G1 F1800 X112.103 Y96.546 E40.98788
G0 F9000 X113.127 Y95.308
G1 F1800 X118.325 Y100.506 E41.35463
G0 F9000 X118.425 Y100.040
G1 F1800 X115.874 Y97.489 E41.53462
G0 F9000 X114.061 Y99.071
G1 F1800 X116.806 Y101.815 E41.72826
G0 F9000 X116.478 Y102.053
G1 F1800 X114.208 Y99.783 E41.88842
G0 F9000 X117.999 Y99.048
G1 F1800 X118.116 Y99.166 E41.89671
G0 F9000 X110.052 Y92.437
G0 X105.207 Y87.333
G0 X102.460 Y84.075
G1 F1800 X99.958 Y81.573 E42.07324
G0 F9000 X89.738 Y92.625
G0 X84.174 Y97.468
G1 F1800 X85.909 Y99.203 E42.19565
G0 F9000 X85.789 Y99.648
G1 F1800 X83.847 Y97.706 E42.33267
G0 F9000 X83.519 Y97.944
G1 F1800 X85.789 Y100.214 E42.49283
G0 F9000 X85.960 Y100.951
G1 F1800 X83.192 Y98.183 E42.68813
G0 F9000 X82.865 Y98.421
G1 F1800 X87.906 Y103.463 E43.04383
G0 F9000 X86.869 Y104.688
G1 F1800 X81.672 Y99.491 E43.41051
G0 F9000 X81.894 Y99.147
G1 F1800 X100.849 Y118.103 E44.74792
G0 F9000 X101.101 Y117.789
G1 F1800 X82.210 Y98.898 E46.08078
G0 F9000 X82.537 Y98.659
G1 F1800 X101.339 Y117.461 E47.40737
G0 F9000 X101.578 Y117.134
G1 F1800 X96.543 Y112.099 E47.76261
G0 F9000 X95.370 Y113.189
G1 F1800 X100.506 Y118.325 E48.12499
G0 F9000 X100.040 Y118.425
G1 F1800 X97.544 Y115.929 E48.30109
G0 F9000 X99.081 Y114.072
