;Generated with Cura_SteamEngine 15.01
; Default start code
G28 ; Home extruder
G1 Z15 F100
M107 ; Turn off fan
G90 ; Absolute positioning
M82 ; Extruder in absolute mode
M190 S60
; Activate all used extruder
M104 T0 S195
G92 E0 ; Reset extruder position
; Wait for all used extruders to reach temperature
M109 T0 S195
;Layer count: 26
;LAYER:0
M107
G0 F9000 X84.457 Y68.276 Z0.300
;TYPE:SKIRT
G1 F1800 X84.839 Y67.891 E0.02706
G1 X85.042 Y67.719 E0.04033
G1 X85.480 Y67.397 E0.06745
G1 X86.078 Y67.073 E0.10139
G1 X86.712 Y66.847 E0.13497
G1 X87.454 Y66.688 E0.17282
G1 X92.388 Y66.673 E0.41898
G1 X93.141 Y66.703 E0.45658
G1 X93.800 Y66.852 E0.49029
G1 X93.800 Y66.673 E0.49922
G1 X110.700 Y66.673 E1.34236
G1 X110.700 Y68.173 E1.41720
G1 X115.799 Y68.173 E1.67159
G1 X115.799 Y71.613 E1.84321
G1 X115.947 Y71.810 E1.85550
G1 X116.272 Y72.391 E1.88872
G1 X116.519 Y73.058 E1.92420
G1 X116.682 Y73.812 E1.96269
G1 X116.699 Y75.673 E2.05554
G1 X119.700 Y75.673 E2.20526
G1 X119.700 Y88.717 E2.85603
G1 X119.940 Y88.935 E2.87220
G1 X121.303 Y90.135 E2.96280
G1 X122.597 Y91.233 E3.04747
G1 X123.999 Y92.379 E3.13781
G1 X125.365 Y93.456 E3.22459
G1 X126.736 Y94.496 E3.31045
G1 X128.205 Y95.569 E3.40120
G1 X128.278 Y95.623 E3.40573
G1 X129.632 Y96.575 E3.48831
G1 X129.633 Y96.574 E3.48838
G1 X130.019 Y96.845 E3.51191
G1 X130.596 Y97.493 E3.55520
G1 X130.978 Y98.022 E3.58775
G1 X131.298 Y98.585 E3.62006
G1 X131.560 Y99.178 E3.65240
G1 X131.755 Y99.793 E3.68459
G1 X131.885 Y100.402 E3.71566
G1 X131.954 Y101.052 E3.74827
G1 X131.951 Y101.807 E3.78594
G1 X131.774 Y102.906 E3.84147
G1 X131.538 Y103.627 E3.87932
G1 X131.268 Y104.221 E3.91188
G1 X130.941 Y104.782 E3.94427
G1 X130.558 Y105.299 E3.97637
G1 X130.013 Y105.905 E4.01703
G1 X128.408 Y107.031 E4.11485
G1 X126.997 Y108.056 E4.20186
G1 X125.693 Y109.038 E4.28330
G1 X124.346 Y110.090 E4.36857
G1 X123.005 Y111.175 E4.45462
G1 X121.731 Y112.243 E4.53756
G1 X120.457 Y113.349 E4.62173
G1 X119.155 Y114.520 E4.70910
G1 X117.897 Y115.693 E4.79491
G1 X116.733 Y116.818 E4.87567
G1 X115.574 Y117.974 E4.95734
G1 X114.381 Y119.207 E5.04294
G1 X113.246 Y120.422 E5.12589
G1 X112.077 Y121.716 E5.21289
G1 X111.004 Y122.947 E5.29436
G1 X109.917 Y124.238 E5.37856
G1 X108.838 Y125.566 E5.46392
G1 X107.778 Y126.920 E5.54971
G1 X106.792 Y128.223 E5.63123
G1 X105.764 Y129.633 E5.71829
G1 X104.793 Y131.015 E5.80256
G1 X104.525 Y131.397 E5.82584
G1 X103.816 Y132.026 E5.87312
G1 X102.887 Y132.627 E5.92832
G1 X102.193 Y132.934 E5.96618
G1 X101.578 Y133.128 E5.99836
G1 X100.972 Y133.258 E6.02928
G1 X100.321 Y133.327 E6.06194
G1 X99.565 Y133.324 E6.09966
G1 X98.466 Y133.147 E6.15519
G1 X97.743 Y132.910 E6.19315
G1 X97.150 Y132.640 E6.22566
G1 X96.594 Y132.316 E6.25776
G1 X96.080 Y131.937 E6.28962
G1 X95.469 Y131.390 E6.33054
G1 X94.340 Y129.781 E6.42860
G1 X93.332 Y128.393 E6.51418
G1 X92.243 Y126.947 E6.60449
G1 X91.296 Y125.735 E6.68123
G1 X90.198 Y124.379 E6.76828
G1 X89.130 Y123.105 E6.85122
G1 X88.024 Y121.831 E6.93539
G1 X86.912 Y120.595 E7.01834
G1 X85.739 Y119.334 E7.10426
G1 X84.592 Y118.144 E7.18672
G1 X83.359 Y116.910 E7.27375
G1 X82.159 Y115.749 E7.35705
G1 X80.911 Y114.582 E7.44229
G1 X79.658 Y113.451 E7.52650
G1 X78.426 Y112.378 E7.60801
G1 X77.135 Y111.291 E7.69221
G1 X75.781 Y110.192 E7.77921
G1 X74.451 Y109.150 E7.86351
G1 X73.148 Y108.164 E7.94503
G1 X71.764 Y107.154 E8.03051
G1 X70.358 Y106.166 E8.11624
G1 X69.979 Y105.900 E8.13934
G1 X69.403 Y105.253 E8.18256
G1 X69.021 Y104.724 E8.21511
G1 X68.701 Y104.161 E8.24742
G1 X68.438 Y103.567 E8.27983
G1 X68.244 Y102.951 E8.31205
G1 X68.114 Y102.345 E8.34297
G1 X68.045 Y101.694 E8.37563
G1 X68.048 Y101.016 E8.40946
G1 X68.120 Y100.367 E8.44203
G1 X68.258 Y99.738 E8.47416
G1 X68.462 Y99.118 E8.50672
G1 X68.731 Y98.525 E8.53921
G1 X69.058 Y97.964 E8.57161
G1 X69.441 Y97.447 E8.60371
G1 X69.985 Y96.841 E8.64433
G1 X71.611 Y95.700 E8.74344
G1 X73.001 Y94.690 E8.82916
G1 X74.306 Y93.707 E8.91067
G1 X75.660 Y92.650 E8.99637
G1 X76.993 Y91.572 E9.08189
G1 X78.256 Y90.512 E9.16416
G1 X79.549 Y89.391 E9.24953
G1 X80.300 Y88.715 E9.29994
G1 X80.300 Y75.673 E9.95061
G1 X83.300 Y75.673 E10.10028
G1 X83.300 Y71.545 E10.30623
G1 X83.328 Y70.747 E10.34607
G1 X83.489 Y70.018 E10.38331
G1 X83.732 Y69.386 E10.41709
G1 X84.057 Y68.798 E10.45061
G1 X84.457 Y68.276 E10.48342
G1 F2400 E-11.51658
G0 F9000 X87.325 Y70.781
;TYPE:WALL-INNER
G1 F2400 E10.48342
G1 F1800 X87.411 Y70.694 E10.48952
G1 X87.524 Y70.611 E10.49652
G1 X87.631 Y70.553 E10.50259
G1 X87.747 Y70.512 E10.50873
G1 X87.864 Y70.487 E10.51470
G1 X92.306 Y70.473 E10.73631
G1 X92.647 Y70.487 E10.75334
G1 X92.757 Y70.512 E10.75897
G1 X92.877 Y70.557 E10.76536
G1 X92.987 Y70.618 E10.77164
G1 X93.092 Y70.698 E10.77822
G1 X93.173 Y70.780 E10.78397
G1 X93.259 Y70.896 E10.79118
G1 X93.319 Y71.006 E10.79743
G1 X93.390 Y71.256 E10.81039
G1 X93.443 Y71.973 E10.84626
G1 X97.600 Y71.973 E11.05366
G1 X97.600 Y70.473 E11.12849
G1 X97.900 Y70.473 E11.14346
G1 X97.900 Y71.973 E11.21829
G1 X103.600 Y71.973 E11.50267
G1 X103.600 Y70.473 E11.57750
G1 X103.900 Y70.473 E11.59247
G1 X103.900 Y71.973 E11.66731
G1 X106.600 Y71.973 E11.80201
G1 X106.600 Y70.473 E11.87684
G1 X106.900 Y70.473 E11.89181
G1 X106.900 Y71.973 E11.96665
G1 X111.999 Y71.973 E12.22104
G1 X111.999 Y73.359 E12.29018
G1 X112.477 Y73.612 E12.31717
G1 X112.582 Y73.691 E12.32372
G1 X112.678 Y73.786 E12.33046
G1 X112.755 Y73.887 E12.33680
G1 X112.812 Y73.989 E12.34263
G1 X112.863 Y74.127 E12.34997
G1 X112.886 Y74.233 E12.35538
G1 X112.900 Y75.799 E12.43351
G1 X112.887 Y76.011 E12.44411
G1 X112.860 Y76.131 E12.45024
G1 X112.815 Y76.251 E12.45664
G1 X112.753 Y76.361 E12.46294
G1 X112.674 Y76.465 E12.46945
G1 X112.588 Y76.552 E12.47555
G1 X112.364 Y76.693 E12.48876
G1 X112.250 Y76.735 E12.49482
G1 X112.135 Y76.759 E12.50068
G1 X106.600 Y76.772 E12.77682
G1 X106.600 Y76.023 E12.81419
G1 X103.993 Y76.023 E12.94426
G1 X103.662 Y76.688 E12.98132
G1 X104.612 Y77.944 E13.05988
G1 X105.392 Y78.950 E13.12339
G1 X106.406 Y80.223 E13.20459
G1 X109.600 Y80.223 E13.36394
G1 X109.600 Y79.473 E13.40135
G1 X115.900 Y79.473 E13.71566
G1 X115.900 Y79.773 E13.73063
G1 X115.150 Y79.773 E13.76805
G1 X115.150 Y82.473 E13.90275
G1 X115.900 Y82.473 E13.94017
G1 X115.900 Y82.773 E13.95514
G1 X115.150 Y82.773 E13.99255
G1 X115.150 Y85.473 E14.12726
G1 X115.900 Y85.473 E14.16467
G1 X115.900 Y85.773 E14.17964
G1 X112.265 Y85.773 E14.36099
G1 X111.956 Y86.510 E14.40086
G1 X113.446 Y88.022 E14.50677
G1 X114.749 Y89.299 E14.59779
G1 X116.076 Y90.555 E14.68895
G1 X117.425 Y91.784 E14.77999
G1 X118.796 Y92.991 E14.87112
G1 X120.188 Y94.172 E14.96220
G1 X121.601 Y95.327 E15.05324
G1 X123.035 Y96.458 E15.14436
G1 X124.490 Y97.561 E15.23545
G1 X125.959 Y98.635 E15.32624
G1 X127.454 Y99.687 E15.41744
G1 X127.476 Y99.703 E15.41880
G1 X127.626 Y99.871 E15.43003
G1 X127.776 Y100.079 E15.44283
G1 X127.898 Y100.294 E15.45516
G1 X128.001 Y100.527 E15.46787
G1 X128.077 Y100.767 E15.48043
G1 X128.126 Y100.997 E15.49216
G1 X128.153 Y101.249 E15.50481
G1 X128.152 Y101.500 E15.51733
G1 X128.071 Y102.005 E15.54285
G1 X127.992 Y102.247 E15.55555
G1 X127.890 Y102.471 E15.56783
G1 X127.767 Y102.682 E15.58001
G1 X127.608 Y102.897 E15.59335
G1 X127.479 Y103.041 E15.60300
G1 X126.178 Y103.954 E15.68229
G1 X124.759 Y104.985 E15.76980
G1 X123.358 Y106.040 E15.85730
G1 X121.975 Y107.120 E15.94484
G1 X120.611 Y108.224 E16.03239
G1 X119.266 Y109.352 E16.11996
G1 X117.941 Y110.501 E16.20746
G1 X116.567 Y111.738 E16.29970
G1 X115.283 Y112.935 E16.38728
G1 X114.089 Y114.089 E16.47012
G1 X112.846 Y115.328 E16.55768
G1 X111.626 Y116.590 E16.64525
G1 X110.429 Y117.871 E16.73272
G1 X109.253 Y119.173 E16.82025
G1 X108.100 Y120.496 E16.90780
G1 X106.971 Y121.838 E16.99530
G1 X105.864 Y123.200 E17.08286
G1 X104.782 Y124.581 E17.17039
G1 X103.724 Y125.980 E17.25790
G1 X102.690 Y127.399 E17.34549
G1 X101.670 Y128.850 E17.43398
G1 X101.511 Y128.991 E17.44458
G1 X101.073 Y129.274 E17.47060
G1 X100.847 Y129.374 E17.48293
G1 X100.609 Y129.450 E17.49539
G1 X100.376 Y129.499 E17.50727
G1 X100.123 Y129.526 E17.51997
G1 X99.872 Y129.525 E17.53249
G1 X99.367 Y129.444 E17.55801
G1 X99.129 Y129.366 E17.57050
G1 X98.896 Y129.259 E17.58329
G1 X98.482 Y128.988 E17.60798
G1 X98.330 Y128.852 E17.61815
G1 X97.418 Y127.552 E17.69738
G1 X96.387 Y126.132 E17.78493
G1 X95.275 Y124.656 E17.87713
G1 X94.253 Y123.347 E17.95998
G1 X93.148 Y121.983 E18.04756
G1 X92.022 Y120.640 E18.13499
G1 X90.872 Y119.315 E18.22252
G1 X89.698 Y118.010 E18.31010
G1 X88.503 Y116.725 E18.39765
G1 X87.284 Y115.462 E18.48522
G1 X86.044 Y114.220 E18.57278
G1 X84.784 Y113.000 E18.66028
G1 X83.502 Y111.802 E18.74782
G1 X82.200 Y110.627 E18.83531
G1 X80.877 Y109.474 E18.92287
G1 X79.534 Y108.344 E19.01043
G1 X78.172 Y107.238 E19.09796
G1 X76.791 Y106.156 E19.18549
G1 X75.392 Y105.097 E19.27303
G1 X73.974 Y104.063 E19.36059
G1 X72.522 Y103.043 E19.44911
G1 X72.373 Y102.875 E19.46032
G1 X72.223 Y102.667 E19.47311
G1 X72.101 Y102.452 E19.48544
G1 X71.996 Y102.215 E19.49838
G1 X71.922 Y101.982 E19.51057
G1 X71.873 Y101.749 E19.52245
G1 X71.846 Y101.496 E19.53514
G1 X71.847 Y101.232 E19.54832
G1 X71.874 Y100.986 E19.56066
G1 X71.929 Y100.737 E19.57338
G1 X72.009 Y100.495 E19.58610
G1 X72.112 Y100.269 E19.59849
G1 X72.393 Y99.846 E19.62383
G1 X72.520 Y99.705 E19.63329
G1 X73.820 Y98.792 E19.71255
G1 X75.239 Y97.761 E19.80006
G1 X76.640 Y96.706 E19.88755
G1 X78.023 Y95.627 E19.97507
G1 X79.388 Y94.523 E20.06265
G1 X80.731 Y93.396 E20.15012
G1 X82.056 Y92.247 E20.23762
G1 X83.360 Y91.074 E20.32512
G1 X84.645 Y89.878 E20.41270
G1 X85.908 Y88.660 E20.50024
G1 X87.150 Y87.421 E20.58777
G1 X88.600 Y85.922 E20.69182
G1 X88.600 Y84.273 E20.77408
G1 X84.443 Y84.273 E20.98148
G1 X84.389 Y85.002 E21.01795
G1 X84.362 Y85.126 E21.02428
G1 X84.317 Y85.247 E21.03072
G1 X84.256 Y85.358 E21.03704
G1 X84.100 Y85.540 E21.04900
G1 X84.100 Y79.473 E21.35168
G1 X84.400 Y79.473 E21.36665
G1 X84.400 Y80.223 E21.40407
G1 X88.600 Y80.223 E21.61361
G1 X88.600 Y79.473 E21.65102
G1 X94.196 Y79.473 E21.93021
G1 X94.962 Y78.496 E21.99215
G1 X95.510 Y77.782 E22.03705
G1 X96.337 Y76.688 E22.10547
G1 X96.006 Y76.023 E22.14253
G1 X93.400 Y76.023 E22.27254
G1 X93.400 Y76.773 E22.30996
G1 X93.100 Y76.773 E22.32493
G1 X93.100 Y76.023 E22.36235
G1 X87.400 Y76.023 E22.64672
G1 X87.400 Y76.773 E22.68414
G1 X87.100 Y76.773 E22.69910
G1 X87.100 Y71.623 E22.95604
G1 X87.114 Y71.225 E22.97591
G1 X87.138 Y71.116 E22.98148
G1 X87.185 Y70.993 E22.98805
G1 X87.246 Y70.885 E22.99423
G1 X87.325 Y70.781 E23.00075
G0 F9000 X93.041 Y76.082
G0 X95.987 Y76.054
G0 X96.301 Y76.685
G0 X96.719 Y82.170
G1 F1800 X95.593 Y83.135 E23.07473
G1 X94.418 Y84.165 E23.15269
G1 X94.150 Y84.398 E23.17041
G1 X94.150 Y85.473 E23.22404
G1 X94.900 Y85.473 E23.26146
G1 X94.900 Y85.773 E23.27642
G1 X92.632 Y85.773 E23.38957
G1 X91.020 Y87.277 E23.49956
G1 X89.599 Y88.646 E23.59801
G1 X88.197 Y90.035 E23.69647
G1 X87.834 Y90.404 E23.72229
G1 X86.816 Y91.443 E23.79486
G1 X86.458 Y91.817 E23.82069
G1 X85.456 Y92.871 E23.89325
G1 X85.103 Y93.250 E23.91909
G1 X84.115 Y94.318 E23.99167
G1 X82.805 Y95.775 E24.08942
G1 X81.499 Y97.272 E24.18853
G1 X80.148 Y98.864 E24.29270
G1 X79.918 Y99.122 E24.30995
G1 X79.689 Y99.440 E24.32950
G1 X79.370 Y100.070 E24.36473
G1 X79.247 Y100.457 E24.38499
G1 X79.171 Y100.810 E24.40300
G1 X79.132 Y101.186 E24.42186
G1 X79.133 Y101.580 E24.44152
G1 X79.174 Y101.956 E24.46039
G1 X79.256 Y102.323 E24.47915
G1 X79.377 Y102.694 E24.49862
G1 X79.699 Y103.324 E24.53392
G1 X79.937 Y103.646 E24.55389
G1 X81.347 Y105.298 E24.66225
G1 X82.635 Y106.778 E24.76013
G1 X84.015 Y108.319 E24.86334
G1 X85.057 Y109.447 E24.93995
G1 X85.423 Y109.841 E24.96678
G1 X86.414 Y110.883 E25.03852
G1 X86.786 Y111.271 E25.06534
G1 X87.791 Y112.299 E25.13706
G1 X88.169 Y112.683 E25.16395
G1 X89.189 Y113.695 E25.23563
G1 X89.572 Y114.074 E25.26251
G1 X90.607 Y115.072 E25.33424
G1 X90.995 Y115.443 E25.36103
G1 X92.045 Y116.428 E25.43285
G1 X92.439 Y116.793 E25.45965
G1 X93.504 Y117.763 E25.53152
G1 X95.156 Y119.231 E25.64177
G1 X96.439 Y120.335 E25.72622
G1 X97.950 Y124.389 E25.94206
G1 X98.149 Y124.871 E25.96808
G1 X98.317 Y125.132 E25.98357
G1 X98.514 Y125.359 E25.99856
G1 X98.741 Y125.556 E26.01356
G1 X98.993 Y125.717 E26.02848
G1 X99.264 Y125.841 E26.04334
G1 X99.553 Y125.927 E26.05839
G1 X99.850 Y125.969 E26.07335
G1 X100.149 Y125.969 E26.08827
G1 X100.446 Y125.927 E26.10323
G1 X100.735 Y125.841 E26.11828
G1 X101.006 Y125.717 E26.13315
G1 X101.258 Y125.556 E26.14806
G1 X101.485 Y125.359 E26.16306
G1 X101.682 Y125.132 E26.17806
G1 X101.844 Y124.881 E26.19296
G1 X101.960 Y124.627 E26.20689
G1 X103.475 Y120.563 E26.42327
G1 X103.562 Y120.333 E26.43554
G1 X104.717 Y119.341 E26.51150
G1 X106.223 Y118.010 E26.61177
G1 X107.634 Y116.725 E26.70699
G1 X108.028 Y116.359 E26.73382
G1 X109.100 Y115.351 E26.80723
G1 X109.489 Y114.980 E26.83405
G1 X110.547 Y113.956 E26.90751
G1 X110.931 Y113.578 E26.93439
G1 X111.973 Y112.539 E27.00780
G1 X112.350 Y112.156 E27.03461
G1 X113.376 Y111.102 E27.10800
G1 X113.749 Y110.714 E27.13485
G1 X114.760 Y109.644 E27.20829
G1 X115.126 Y109.250 E27.23512
G1 X116.123 Y108.166 E27.30860
G1 X117.528 Y106.591 E27.41390
G1 X118.845 Y105.073 E27.51416
G1 X120.234 Y103.422 E27.62180
G1 X120.430 Y103.102 E27.64052
G1 X120.587 Y102.777 E27.65853
G1 X120.711 Y102.439 E27.67649
G1 X120.801 Y102.090 E27.69447
G1 X120.855 Y101.733 E27.71249
G1 X120.873 Y101.373 E27.73047
G1 X120.855 Y101.013 E27.74845
G1 X120.801 Y100.656 E27.76647
G1 X120.711 Y100.307 E27.78445
G1 X120.587 Y99.966 E27.80255
G1 X120.421 Y99.629 E27.82129
G1 X120.234 Y99.324 E27.83914
G1 X118.993 Y97.847 E27.93539
G1 X117.688 Y96.336 E28.03499
G1 X116.360 Y94.845 E28.13461
G1 X115.153 Y93.525 E28.22384
G1 X114.787 Y93.131 E28.25067
G1 X113.783 Y92.067 E28.32366
G1 X113.411 Y91.679 E28.35047
G1 X112.392 Y90.632 E28.42336
G1 X112.015 Y90.249 E28.45018
G1 X110.979 Y89.216 E28.52317
G1 X110.596 Y88.839 E28.54998
G1 X109.546 Y87.821 E28.62294
G1 X109.157 Y87.449 E28.64979
G1 X108.093 Y86.447 E28.72271
G1 X107.699 Y86.081 E28.74954
G1 X106.620 Y85.094 E28.82250
G1 X106.114 Y84.635 E28.85658
G1 X105.850 Y84.752 E28.87099
G1 X105.850 Y84.400 E28.88855
G1 X105.153 Y83.785 E28.93492
G1 X104.655 Y83.350 E28.96791
G1 X103.988 Y82.773 E29.01191
G1 X99.100 Y82.773 E29.25577
G1 X99.100 Y82.473 E29.27074
G1 X102.433 Y82.473 E29.43703
G1 X102.716 Y81.674 E29.47931
G1 X102.124 Y81.194 E29.51734
G1 X101.814 Y80.991 E29.53582
G1 X101.486 Y80.822 E29.55423
G1 X101.143 Y80.687 E29.57262
G1 X100.786 Y80.587 E29.59112
G1 X100.422 Y80.525 E29.60954
G1 X100.054 Y80.500 E29.62794
G1 X99.684 Y80.514 E29.64642
G1 X99.318 Y80.565 E29.66485
G1 X98.959 Y80.654 E29.68330
G1 X98.612 Y80.778 E29.70169
G1 X98.294 Y80.930 E29.71927
G1 X97.952 Y81.138 E29.73924
G1 X96.719 Y82.170 E29.81946
G1 F2400 E7.81946
G0 F9000 X98.378 Y85.290
G1 F2400 E29.81946
G1 F1800 X99.930 Y83.981 E29.92075
G1 X99.946 Y83.968 E29.92178
G1 X100.000 Y83.947 E29.92467
G1 X100.074 Y83.977 E29.92866
G1 X100.137 Y84.025 E29.93261
G1 X100.196 Y84.085 E29.93681
G1 X100.755 Y84.554 E29.97321
G1 X101.210 Y84.938 E30.00291
G1 X101.837 Y85.473 E30.04404
G1 X105.400 Y85.473 E30.22179
G1 X105.400 Y85.773 E30.23676
G1 X103.364 Y85.773 E30.33834
G1 X103.069 Y86.544 E30.37952
G1 X103.759 Y87.163 E30.42577
G1 X104.862 Y88.159 E30.49991
G1 X106.342 Y89.533 E30.60066
G1 X106.727 Y89.900 E30.62720
G1 X107.799 Y90.928 E30.70130
G1 X109.235 Y92.347 E30.80202
G1 X110.657 Y93.793 E30.90320
G1 X112.044 Y95.248 E31.00349
